!!!!SEGMENT: pl-sa--231-a-vi-35--001_anonim--litania-sinfonia.krn
!!!cenid: 17xx:1396
!!!COM: Anonim
!!!COM-rismID:
!!!CDT:
!!!CNT:
!!!OPR: Litania
!!!OTL: Sinfonia
!!!OMV: 001
!!!PDT:
!!!AGN: Sacred; Mass
!!!SMS-siglum: PL-SA
!!!SMS-shelfmark: 231/A VI 35
!!!SMS-shelfwork: 001-001 M
!!!SMS-variant:
!!!SMS-altvar:
!!!NIFC-rismSourceID: 1001039070
!!!NIFC-islandoraID:
!!!URL-pdf-islandora:
!!!URL-scan: https://bc.bdsandomierz.pl/dlibra/publication/1585/edition/1553/content @EN{Scan on Cyfrowa Biblioteka Diecezjalna w Sandomierzu} @PL{Skany w portalu Cyfrowa Biblioteka Diecezjalna w Sandomierzu}
!!!ONB-nifc: UWAGA: części Litanii: 1. Sinfonia, 2. Kyrie, 3. Pater de caelis, 4. Sancta Maria, 5. Mater amabilis, 6. Speculum iustitiae, 7. Rosa mystica, 8. Salus infirmorum, 9. Regina angelorum, 10. Agnus Dei. Uwaga: wpisać oba teksty.
!!!AIN: 5 empty 1 oboe 1 tenor 2 violn 1 vox
!!!key:
**kern	**dynam	**kern	**dynam	**kern	**dynam	**kern	**kern	**kern	**kern	**dynam	**kern	**dynam	**kern	**kern	**dynam
*part10	*part10	*part9	*part9	*part8	*part8	*part7	*part6	*part5	*part4	*part4	*part3	*part3	*part2	*part1	*part1
*staff10	*	*staff9	*	*staff8	*	*staff7	*staff6	*staff5	*staff4	*	*staff3	*	*staff2	*staff1	*
*Iempty	*	*Ivioln	*	*Ivioln	*	*Iempty	*Itenor	*Ivox	*Iempty	*	*Iempty	*	*Iempty	*Ioboe	*
*I"Fondamento.	*	*I"Violino Secundo.	*	*I"Violino Primo	*	*I"Baſso.	*I"Tenore	*I"Canto	*I"Cornu Secundo ex G.	*	*I"Cornu Primo ex G	*	*I"[Oboa Seconda]	*I"Oböa Prima.	*
*I'Bc	*	*I'Vl II	*	*I'Vl I	*	*I'B	*I'T	*I'S	*I'Cor II in G	*	*I'Cor I in G	*	*I'Ob II	*I'Ob I	*
*ICstr	*	*ICstr	*	*ICstr	*	*ICvox	*ICvox	*ICvox	*ICbras	*	*ICbras	*	*ICww	*ICww	*
*clefF4	*	*clefG2	*	*clefG2	*	*clefF4	*clefC4	*clefC1	*clefG2	*	*clefG2	*	*clefG2	*clefG2	*
*	*	*	*	*	*	*	*	*	*ITrd3c5	*	*ITrd3c5	*	*	*	*
*k[f#]	*	*k[f#]	*	*k[f#]	*	*k[f#]	*k[f#]	*k[f#]	*k[f#]	*	*k[f#]	*	*k[f#]	*k[f#]	*
*G:	*	*G:	*	*G:	*	*G:	*	*G:	*	*	*	*	*G:	*G:	*
*M4/4	*	*M4/4	*	*M4/4	*	*M4/4	*M4/4	*M4/4	*M4/4	*	*M4/4	*	*M4/4	*M4/4	*
*met(c)	*	*met(c)	*	*met(c)	*	*met(c)	*met(c)	*met(c)	*met(c)	*	*met(c)	*	*met(c)	*met(c)	*
=1	=1	=1	=1	=1	=1	=1	=1	=1	=1	=1	=1	=1	=1	=1	=1
!	!	!	!	!	!	!	!	!	!	!	!	!	!	!LO:TX:t=P:f=for.:global:problem	!
!	!	!	!	!	!	!	!	!	!	!	!	!	!	!LO:TX:t=P:p=pia::global:problem	!
!LO:TX:a:rj:t=Allo.	!	!LO:TX:a:rj:t=Allo	!	!LO:TX:a:rj:t=Allo	!	!LO:TX:a:t=Tacet.	!LO:TX:a:t=Tacet	!LO:TX:a:t=Tacet	!LO:TX:a:rj:t=Allo	!	!LO:TX:a:t=Allo&colon;	!	!LO:TX:t=P:problem=brak źródła	!LO:TX:a:rj:t=Allo&colon;	!
8G\L	.	4gg/ 4b/ 4d/ 4G/	.	4gg/ 4b/ 4d/ 4G/	.	1ryy	1ryy	1ryy	4g\	.	4b\	.	1ryy	4gg\	.
16G\L	.	.	.	.	.	.	.	.	.	.	.	.	.	.	.
16A\JJ	.	.	.	.	.	.	.	.	.	.	.	.	.	.	.
8B\L	.	4r	.	4r	.	.	.	.	4r	.	4r	.	.	4r	.
(16A\L	.	.	.	.	.	.	.	.	.	.	.	.	.	.	.
16G\JJ)	.	.	.	.	.	.	.	.	.	.	.	.	.	.	.
8d\L	.	4ff#/ 4a/ 4d/	.	4ff#/ 4a/ 4d/	.	.	.	.	4d/	.	4a\	.	.	4ff#\	.
16D\L	.	.	.	.	.	.	.	.	.	.	.	.	.	.	.
16E\JJ	.	.	.	.	.	.	.	.	.	.	.	.	.	.	.
8F#\L	.	4r	.	4r	.	.	.	.	4r	.	4r	.	.	4r	.
16E\L	.	.	.	.	.	.	.	.	.	.	.	.	.	.	.
16D\JJ	.	.	.	.	.	.	.	.	.	.	.	.	.	.	.
=2	=2	=2	=2	=2	=2	=2	=2	=2	=2	=2	=2	=2	=2	=2	=2
8G\L	.	4gg/ 4b/ 4d/ 4G/	.	4gg/ 4b/ 4d/ 4G/	.	1ryy	1ryy	1ryy	4g\	.	4b\	.	1ryy	4gg\	.
16G\L	.	.	.	.	.	.	.	.	.	.	.	.	.	.	.
16A\JJ	.	.	.	.	.	.	.	.	.	.	.	.	.	.	.
8B\L	.	4r	.	4r	.	.	.	.	4r	.	4r	.	.	4r	.
16A\L	.	.	.	.	.	.	.	.	.	.	.	.	.	.	.
16G\JJ	.	.	.	.	.	.	.	.	.	.	.	.	.	.	.
8d\L	.	4ff#/ 4a/ 4d/	.	4ff#/ 4a/ 4d/	.	.	.	.	8d/L	.	8a\L	.	.	4ff#\	.
16D\L	.	.	.	.	.	.	.	.	16d/L	.	16a\L	.	.	.	.
16D\JJ	.	.	.	.	.	.	.	.	16d/JJ	.	16a\JJ	.	.	.	.
4D\	.	4r	.	4r	.	.	.	.	4d/	.	4a\	.	.	4r	.
=3	=3	=3	=3	=3	=3	=3	=3	=3	=3	=3	=3	=3	=3	=3	=3
!	!LO:DY:a	!	!LO:DY:a	!	!LO:DY:a	!	!	!	!	!LO:DY:a:t=pia	!	!LO:DY:a	!	!	!LO:DY:a:t=pia.
8G\L	p	(16g/LL	p	(16b\LL	p	1ryy	1ryy	1ryy	16g\LL	p	16b\LL	p	1ryy	(16b\LL	p
.	.	16a/J)	.	16cc\J)	.	.	.	.	16a\J	.	16cc\J	.	.	16cc\J)	.
!	!	!LO:TX:b:t=|:problem	!	!LO:TX:a:t=|:problem	!	!	!	!	!	!	!	!	!	!LO:TX:a:t=|:problem	!
16G\L	.	8b/J	.	8dd\J	.	.	.	.	8b\J	.	8dd\J	.	.	8dd\J	.
16A\JJ	.	.	.	.	.	.	.	.	.	.	.	.	.	.	.
8B\L	.	4b/	.	4ddT\	.	.	.	.	4b\	.	4dd\	.	.	4ddT\	.
16A\L	.	.	.	.	.	.	.	.	.	.	.	.	.	.	.
16G\JJ	.	.	.	.	.	.	.	.	.	.	.	.	.	.	.
8d\L	.	(16a/LL	.	(16a\LL	.	.	.	.	16d\LL	.	16a\LL	.	.	(16a\LL	.
.	.	16g/J)	.	16b\J)	.	.	.	.	16g\J	.	16b\J	.	.	16b\J)	.
!	!	!LO:TX:b:t=|:problem	!	!LO:TX:a:t=|:problem	!	!	!	!	!	!	!	!	!	!LO:TX:a:t=|:problem	!
16D\L	.	8a/J	.	8cc\J	.	.	.	.	8a\J	.	8cc\J	.	.	8cc\J	.
16E\JJ	.	.	.	.	.	.	.	.	.	.	.	.	.	.	.
8F#\L	.	4aT/	.	4ccT\	.	.	.	.	4a\	.	4cc\	.	.	4cc\	.
16E\L	.	.	.	.	.	.	.	.	.	.	.	.	.	.	.
16D\JJ	.	.	.	.	.	.	.	.	.	.	.	.	.	.	.
=4	=4	=4	=4	=4	=4	=4	=4	=4	=4	=4	=4	=4	=4	=4	=4
8G\L	.	8g/L	.	8b\L	.	1ryy	1ryy	1ryy	4g\	.	4b\	.	1ryy	8b\L	.
16G\L	.	8b/J	.	8gg\J	.	.	.	.	.	.	.	.	.	8gg\J	.
16A\JJ	.	.	.	.	.	.	.	.	.	.	.	.	.	.	.
8B\L	.	4bt/	.	4ggT\	.	.	.	.	8r	.	8r	.	.	4ggT\	.
16A\L	.	.	.	.	.	.	.	.	8g\	.	8b\	.	.	.	.
16G\JJ	.	.	.	.	.	.	.	.	.	.	.	.	.	.	.
.	.	8qqb/	.	8qqgg/	.	.	.	.	.	.	.	.	.	8qqgg/	.
8d\L	.	4a/	.	4ff#\	.	.	.	.	8d/L	.	8a\L	.	.	4ff#\	.
8D\J	.	.	.	.	.	.	.	.	8d/J	.	8a\J	.	.	.	.
4D\	.	4r	.	4r	.	.	.	.	4d/	.	4a\	.	.	4r	.
=5	=5	=5	=5	=5	=5	=5	=5	=5	=5	=5	=5	=5	=5	=5	=5
!	!LO:DY:a	!	!LO:DY:a	!	!LO:DY:a	!	!	!	!	!LO:DY:a	!	!LO:DY:a	!	!	!LO:DY:a
8G\L	f	(16b\LL	f	(16gg\LL	f	1ryy	1ryy	1ryy	[>1g/	f	[1b\	f	1ryy	(16gg\LL	f
.	.	16a\	.	16ff#\	.	.	.	.	.	.	.	.	.	16ff#\	.
8G\	.	16b\	.	16gg\	.	.	.	.	.	.	.	.	.	16gg\	.
.	.	16cc\JJ)	.	16aa\JJ)	.	.	.	.	.	.	.	.	.	16aa\JJ)	.
!	!	!LO:TX:a:t=|:problem	!	!	!	!	!	!	!	!	!	!	!	!	!
8G\	.	4b\	.	4gg\	.	.	.	.	.	.	.	.	.	4gg\	.
8G\J	.	.	.	.	.	.	.	.	.	.	.	.	.	.	.
8F#\L	.	(16b\LL	.	(16gg\LL	.	.	.	.	.	.	.	.	.	16gg\LL	.
.	.	16a\	.	16ff#\	.	.	.	.	.	.	.	.	.	16ff#\	.
8F#\	.	16b\	.	16gg\	.	.	.	.	.	.	.	.	.	16gg\	.
.	.	16cc\JJ)	.	16aa\JJ)	.	.	.	.	.	.	.	.	.	16aa\JJ	.
8F#\	.	4b\	.	4gg\	.	.	.	.	.	.	.	.	.	4gg\	.
8F#\J	.	.	.	.	.	.	.	.	.	.	.	.	.	.	.
=6	=6	=6	=6	=6	=6	=6	=6	=6	=6	=6	=6	=6	=6	=6	=6
8E\L	.	(16b\LL	.	(16gg\LL	.	1ryy	1ryy	1ryy	1g/]	.	1b\]	.	1ryy	(16gg\LL	.
.	.	16a\	.	16ff#\	.	.	.	.	.	.	.	.	.	16ff#\	.
8E\	.	16b\	.	16gg\	.	.	.	.	.	.	.	.	.	16gg\	.
.	.	16cc\JJ)	.	16aa\JJ)	.	.	.	.	.	.	.	.	.	16aa\JJ)	.
8E\	.	4b\	.	4gg\	.	.	.	.	.	.	.	.	.	4gg\	.
8E\J	.	.	.	.	.	.	.	.	.	.	.	.	.	.	.
8BB/L	.	(16b\LL	.	(16gg\LL	.	.	.	.	.	.	.	.	.	(16gg\LL	.
.	.	16a\	.	16ff#\	.	.	.	.	.	.	.	.	.	16ff#\	.
8BB/	.	16b\	.	16gg\	.	.	.	.	.	.	.	.	.	16gg\	.
.	.	16cc\JJ)	.	16aa\JJ)	.	.	.	.	.	.	.	.	.	16aa\JJ)	.
8BB/	.	4b\	.	4gg\	.	.	.	.	.	.	.	.	.	4gg\	.
8BB/J	.	.	.	.	.	.	.	.	.	.	.	.	.	.	.
!LO:LB:g=original	!	!	!	!	!	!	!	!	!	!	!	!	!	!	!
=7	=7	=7	=7	=7	=7	=7	=7	=7	=7	=7	=7	=7	=7	=7	=7
*	*	*2\right	*	*2\right	*	*	*	*	*2\right	*	*2\right	*	*	*2\right	*
8C/L	.	2cc\	.	2aa\	.	1ryy	1ryy	1ryy	2a\	.	2cc\	.	1ryy	2aa\	.
8C/	.	.	.	.	.	.	.	.	.	.	.	.	.	.	.
8AA/	.	.	.	.	.	.	.	.	.	.	.	.	.	.	.
8AA/J	.	.	.	.	.	.	.	.	.	.	.	.	.	.	.
.	.	8qqb/	.	8qqgg/	.	.	.	.	.	.	8qqb/	.	.	8qqgg/	.
8D/L	.	2a\	.	2ff#\	.	.	.	.	2d/	.	2a\	.	.	2ff#\	.
8D/	.	.	.	.	.	.	.	.	.	.	.	.	.	.	.
8D/	.	.	.	.	.	.	.	.	.	.	.	.	.	.	.
8D/J	.	.	.	.	.	.	.	.	.	.	.	.	.	.	.
!	!	!	!	!LO:LB:g=original	!	!	!	!	!	!	!	!	!	!	!
=8	=8	=8	=8	=8	=8	=8	=8	=8	=8	=8	=8	=8	=8	=8	=8
4GG/	.	8b\L	.	16gg\LL	.	1ryy	1ryy	1ryy	4g\	.	4b\	.	1ryy	4gg\	.
.	.	.	.	16gg\	.	.	.	.	.	.	.	.	.	.	.
.	.	16dd\L	.	16dd\	.	.	.	.	.	.	.	.	.	.	.
.	.	16dd\JJ	.	16dd\JJ	.	.	.	.	.	.	.	.	.	.	.
8r	.	16b/LL	.	16b/LL	.	.	.	.	4r	.	4r	.	.	4r	.
.	.	16b/	.	16b/	.	.	.	.	.	.	.	.	.	.	.
8G\	.	16g/	.	16g/	.	.	.	.	.	.	.	.	.	.	.
.	.	16g/JJ	.	16g/JJ	.	.	.	.	.	.	.	.	.	.	.
8D/L	.	16d/LL	.	16d/LL	.	.	.	.	2r	.	2r	.	.	2r	.
.	.	16d/	.	16d/	.	.	.	.	.	.	.	.	.	.	.
8BB/J	.	16B/	.	16B/	.	.	.	.	.	.	.	.	.	.	.
.	.	16B/JJ	.	16B/JJ	.	.	.	.	.	.	.	.	.	.	.
4GG/	.	4G/	.	4G/	.	.	.	.	.	.	.	.	.	.	.
!	!	!LO:LB:g=original	!	!	!	!	!	!	!	!	!	!	!	!LO:LB:g=original	!
=9	=9	=9	=9	=9	=9	=9	=9	=9	=9	=9	=9	=9	=9	=9	=9
8G\L	.	(16g/LL	.	(16b\LL	.	1ryy	1ryy	1ryy	[>1g/	.	[1b\	.	1ryy	(16b\LL	.
.	.	16f#/	.	16a\	.	.	.	.	.	.	.	.	.	16a\	.
8G\	.	16g/	.	16b\	.	.	.	.	.	.	.	.	.	16b\	.
.	.	16a/JJ)	.	16cc\JJ)	.	.	.	.	.	.	.	.	.	16cc\JJ)	.
8G\	.	4g/	.	4b\	.	.	.	.	.	.	.	.	.	4b\	.
8G\J	.	.	.	.	.	.	.	.	.	.	.	.	.	.	.
8F#\L	.	(16g/LL	.	(16b\LL	.	.	.	.	.	.	.	.	.	(16b\LL	.
.	.	16f#/	.	16a\	.	.	.	.	.	.	.	.	.	16a\	.
8F#\	.	16g/	.	16b\	.	.	.	.	.	.	.	.	.	16b\	.
.	.	16a/JJ)	.	16cc\JJ)	.	.	.	.	.	.	.	.	.	16cc\JJ)	.
8F#\	.	4g/	.	4b\	.	.	.	.	.	.	.	.	.	4b\	.
8F#\J	.	.	.	.	.	.	.	.	.	.	.	.	.	.	.
=10	=10	=10	=10	=10	=10	=10	=10	=10	=10	=10	=10	=10	=10	=10	=10
8E\L	.	(16g/LL	.	(16b\LL	.	1ryy	1ryy	1ryy	1g/]	.	1b\]	.	1ryy	(16b\LL	.
.	.	16f#/	.	16a\	.	.	.	.	.	.	.	.	.	16a\	.
8E\	.	16g/	.	16b\	.	.	.	.	.	.	.	.	.	16b\	.
.	.	16a/JJ)	.	16cc\JJ)	.	.	.	.	.	.	.	.	.	16cc\JJ)	.
8E\	.	4g/	.	4b\	.	.	.	.	.	.	.	.	.	4b\	.
8E\J	.	.	.	.	.	.	.	.	.	.	.	.	.	.	.
8BB/L	.	(16g/LL	.	(16b\LL	.	.	.	.	.	.	.	.	.	(16b\LL	.
.	.	16f#/	.	16a\	.	.	.	.	.	.	.	.	.	16a\	.
8BB/	.	16g/	.	16b\	.	.	.	.	.	.	.	.	.	16b\	.
.	.	16a/JJ)	.	16cc\JJ)	.	.	.	.	.	.	.	.	.	16cc\JJ)	.
8BB/	.	4g/	.	4b\	.	.	.	.	.	.	.	.	.	4b\	.
8BB/J	.	.	.	.	.	.	.	.	.	.	.	.	.	.	.
=11	=11	=11	=11	=11	=11	=11	=11	=11	=11	=11	=11	=11	=11	=11	=11
8C/L	.	2a/	.	2cc\	.	1ryy	1ryy	1ryy	2a\	.	2cc\	.	1ryy	2cc\	.
8C/	.	.	.	.	.	.	.	.	.	.	.	.	.	.	.
8AA/	.	.	.	.	.	.	.	.	.	.	.	.	.	.	.
8AA/J	.	.	.	.	.	.	.	.	.	.	.	.	.	.	.
.	.	8qqg/	.	8qqb/	.	.	.	.	.	.	.	.	.	8qqb/	.
8D\L	.	2f#/	.	2a/	.	.	.	.	2d/	.	2a\	.	.	2a/	.
8D\	.	.	.	.	.	.	.	.	.	.	.	.	.	.	.
8D\	.	.	.	.	.	.	.	.	.	.	.	.	.	.	.
8D\J	.	.	.	.	.	.	.	.	.	.	.	.	.	.	.
!	!	!	!	!	!	!	!	!	!	!	!LO:LB:g=original	!	!	!	!
=12	=12	=12	=12	=12	=12	=12	=12	=12	=12	=12	=12	=12	=12	=12	=12
!LO:TX:t=P:problem=mixed beam	!	!	!	!	!	!	!	!	!	!	!	!	!	!	!
8GG/L	.	8g/L	.	8b/L	.	1ryy	1ryy	1ryy	8g\L	.	8b\L	.	1ryy	4b/	.
8G\	.	16g/L	.	16g/L	.	.	.	.	8g\	.	8g\	.	.	.	.
.	.	16g/JJ	.	16g/JJ	.	.	.	.	.	.	.	.	.	.	.
8D\	.	16d/LL	.	16d/LL	.	.	.	.	8d\	.	8d\	.	.	4r	.
.	.	16d/	.	16d/	.	.	.	.	.	.	.	.	.	.	.
8BB\J	.	16B/	.	16B/	.	.	.	.	8B\J	.	8B\J	.	.	.	.
.	.	16B/JJ	.	16B/JJ	.	.	.	.	.	.	.	.	.	.	.
8GG/L	.	4G/	.	4G/	.	.	.	.	4G/	.	4G/	.	.	2r	.
16AA/L	.	.	.	.	.	.	.	.	.	.	.	.	.	.	.
16BB/JJ	.	.	.	.	.	.	.	.	.	.	.	.	.	.	.
16C/LL	.	4r	.	4r	.	.	.	.	4r	.	4r	.	.	.	.
16D/	.	.	.	.	.	.	.	.	.	.	.	.	.	.	.
16E/	.	.	.	.	.	.	.	.	.	.	.	.	.	.	.
16F#/JJ	.	.	.	.	.	.	.	.	.	.	.	.	.	.	.
!	!	!	!	!	!	!	!	!	!LO:LB:g=original	!	!	!	!	!	!
=13	=13	=13	=13	=13	=13	=13	=13	=13	=13	=13	=13	=13	=13	=13	=13
!	!LO:DY:a:t=pia.	!	!	!	!	!	!	!	!	!	!	!	!	!LO:TX:a:rj:t=Solo	!
8G\L	p	0r	.	0r	.	1ryy	1ryy	1ryy	0r	.	0r	.	1ryy	8dd\L	.
8G\	.	.	.	.	.	.	.	.	.	.	.	.	.	(16b\L	.
.	.	.	.	.	.	.	.	.	.	.	.	.	.	16cc\JJ)	.
8G\	.	.	.	.	.	.	.	.	.	.	.	.	.	8dd\L	.
8G\J	.	.	.	.	.	.	.	.	.	.	.	.	.	8dd\J	.
8G\L	.	.	.	.	.	.	.	.	.	.	.	.	.	4dd\	.
8G\	.	.	.	.	.	.	.	.	.	.	.	.	.	.	.
8G\	.	.	.	.	.	.	.	.	.	.	.	.	.	4bb\	.
8G\J	.	.	.	.	.	.	.	.	.	.	.	.	.	.	.
=14	=14	=14	=14	=14	=14	=14	=14	=14	=14	=14	=14	=14	=14	=14	=14
8G\L	.	.	.	.	.	1ryy	1ryy	1ryy	.	.	.	.	1ryy	16bb\LL	.
.	.	.	.	.	.	.	.	.	.	.	.	.	.	16aa\	.
8G\	.	.	.	.	.	.	.	.	.	.	.	.	.	16gg\	.
.	.	.	.	.	.	.	.	.	.	.	.	.	.	16ff#\JJ	.
8G\	.	.	.	.	.	.	.	.	.	.	.	.	.	16ee\LL	.
.	.	.	.	.	.	.	.	.	.	.	.	.	.	16dd\	.
8G\J	.	.	.	.	.	.	.	.	.	.	.	.	.	16cc\	.
.	.	.	.	.	.	.	.	.	.	.	.	.	.	16b\JJ	.
8D\L	.	.	.	.	.	.	.	.	.	.	.	.	.	8cc\L	.
8D\	.	.	.	.	.	.	.	.	.	.	.	.	.	16a\L	.
.	.	.	.	.	.	.	.	.	.	.	.	.	.	16b\JJ	.
8D\	.	.	.	.	.	.	.	.	.	.	.	.	.	8cc\L	.
8D\J	.	.	.	.	.	.	.	.	.	.	.	.	.	8cc\J	.
!LO:LB:g=original	!	!	!	!	!	!	!	!	!	!	!	!	!	!	!
=15	=15	=15	=15	=15	=15	=15	=15	=15	=15	=15	=15	=15	=15	=15	=15
8D\L	.	1r	.	1r	.	1ryy	1ryy	1ryy	1r	.	1r	.	1ryy	4cc\	.
8D\	.	.	.	.	.	.	.	.	.	.	.	.	.	.	.
8D\	.	.	.	.	.	.	.	.	.	.	.	.	.	4aa\	.
8D\J	.	.	.	.	.	.	.	.	.	.	.	.	.	.	.
8D\L	.	.	.	.	.	.	.	.	.	.	.	.	.	16aa\LL	.
.	.	.	.	.	.	.	.	.	.	.	.	.	.	16gg\	.
8D\	.	.	.	.	.	.	.	.	.	.	.	.	.	16ff#\	.
.	.	.	.	.	.	.	.	.	.	.	.	.	.	16ee\JJ	.
8D\	.	.	.	.	.	.	.	.	.	.	.	.	.	16dd\LL	.
.	.	.	.	.	.	.	.	.	.	.	.	.	.	16cc\	.
8D\J	.	.	.	.	.	.	.	.	.	.	.	.	.	16b\	.
.	.	.	.	.	.	.	.	.	.	.	.	.	.	16a\JJ	.
!	!	!	!	!	!	!	!	!	!	!	!	!	!	!LO:LB:g=original	!
=16	=16	=16	=16	=16	=16	=16	=16	=16	=16	=16	=16	=16	=16	=16	=16
4GG/	.	2r	.	2r	.	1ryy	1ryy	1ryy	2r	.	2r	.	1ryy	8b\	.
.	.	.	.	.	.	.	.	.	.	.	.	.	.	4gg\	.
8r	.	.	.	.	.	.	.	.	.	.	.	.	.	.	.
8C#X/	.	.	.	.	.	.	.	.	.	.	.	.	.	8b\	.
8D\L	.	4r	.	4r	.	.	.	.	4r	.	4r	.	.	8b\L	.
8D\	.	.	.	.	.	.	.	.	.	.	.	.	.	8a\J	.
8F#\	.	8r	.	8r	.	.	.	.	8r	.	8r	.	.	8r	.
8D\J	.	8a\	.	8a\	.	.	.	.	8d/	.	8a\	.	.	8a\	.
=17	=17	=17	=17	=17	=17	=17	=17	=17	=17	=17	=17	=17	=17	=17	=17
!	!LO:DY:a:rj	!	!	!	!	!	!	!	!	!	!	!	!	!	!
8G\L	f	16b\LL	.	16b\LL	.	1ryy	1ryy	1ryy	4g\	.	4b\	.	1ryy	8b\L	.
.	.	16g\	.	16g\	.	.	.	.	.	.	.	.	.	.	.
8G\	.	16dd\	.	16dd\	.	.	.	.	.	.	.	.	.	8dd\J	.
.	.	16b\JJ	.	16b\JJ	.	.	.	.	.	.	.	.	.	.	.
8G\	.	4gg\	.	4gg\	.	.	.	.	4r	.	4r	.	.	4gg\	.
8G\J	.	.	.	.	.	.	.	.	.	.	.	.	.	.	.
!	!	!	!	!LO:LB:g=original	!	!	!	!	!	!	!	!	!	!	!
8E\L	.	16bb\LL	.	16bb\LL	.	.	.	.	4g\	.	4b\	.	.	16bb\LL	.
.	.	16aa\	.	16aa\	.	.	.	.	.	.	.	.	.	16aa\	.
8E\	.	16gg\	.	16gg\	.	.	.	.	.	.	.	.	.	16gg\	.
.	.	16ff#\JJ	.	16ff#\JJ	.	.	.	.	.	.	.	.	.	16ff#\JJ	.
8E\	.	16ee\LL	.	16ee\LL	.	.	.	.	8r	.	8r	.	.	16ee\LL	.
.	.	16dd\	.	16dd\	.	.	.	.	.	.	.	.	.	16dd\	.
8E\J	.	16cc#X\	.	16cc#X\	.	.	.	.	8g\	.	8b\	.	.	16cc#X\	.
.	.	16b\JJ	.	16b\JJ	.	.	.	.	.	.	.	.	.	16b\JJ	.
=18	=18	=18	=18	=18	=18	=18	=18	=18	=18	=18	=18	=18	=18	=18	=18
8F#\L	.	16a/LL	.	16a/LL	.	1ryy	1ryy	1ryy	4d/	.	4a\	.	1ryy	8a\L	.
.	.	16f#/	.	16f#/	.	.	.	.	.	.	.	.	.	.	.
8F#\	.	16dd/	.	16dd/	.	.	.	.	.	.	.	.	.	8dd\J	.
!	!	!LO:TX:t=P:problem=16b poprawione na 16a	!	!	!	!	!	!	!	!	!	!	!	!	!
.	.	16a/JJ	.	16a/JJ	.	.	.	.	.	.	.	.	.	.	.
8F#\	.	4ff#\	.	4ff#\	.	.	.	.	4r	.	4r	.	.	4ff#\	.
8F#\J	.	.	.	.	.	.	.	.	.	.	.	.	.	.	.
!	!	!LO:LB:g=original	!	!	!	!	!	!	!	!	!	!	!	!	!
8D\L	.	16aa\LL	.	16aa\LL	.	.	.	.	4d/	.	4a\	.	.	16aa\LL	.
.	.	16gg\	.	16gg\	.	.	.	.	.	.	.	.	.	16gg\	.
8D\	.	16ff#\	.	16ff#\	.	.	.	.	.	.	.	.	.	16ff#\	.
.	.	16ee\JJ	.	16ee\JJ	.	.	.	.	.	.	.	.	.	16ee\JJ	.
8D\	.	16dd\LL	.	16dd\LL	.	.	.	.	8r	.	8r	.	.	16dd\LL	.
.	.	16cc#X\	.	16cc#X\	.	.	.	.	.	.	.	.	.	16cc#X\	.
8D\J	.	16b\	.	16b\	.	.	.	.	8d/	.	8a\	.	.	16b\	.
.	.	16a\JJ	.	16a\JJ	.	.	.	.	.	.	.	.	.	16a\JJ	.
=19	=19	=19	=19	=19	=19	=19	=19	=19	=19	=19	=19	=19	=19	=19	=19
8E\L	.	16g/LL	.	16g/LL	.	1ryy	1ryy	1ryy	4a\	.	4a\	.	1ryy	8g\L	.
.	.	16e/	.	16e/	.	.	.	.	.	.	.	.	.	.	.
8E\	.	16cc#X/	.	16cc#X/	.	.	.	.	.	.	.	.	.	8cc#X\J	.
.	.	16g/JJ	.	16g/JJ	.	.	.	.	.	.	.	.	.	.	.
8E\	.	4ee\	.	4ee\	.	.	.	.	4r	.	4r	.	.	4ee\	.
8E\J	.	.	.	.	.	.	.	.	.	.	.	.	.	.	.
8AA/L	.	16gg\LL	.	16gg\LL	.	.	.	.	4a\	.	4a\	.	.	16gg\LL	.
.	.	16ff#\	.	16ff#\	.	.	.	.	.	.	.	.	.	16ff#\	.
8AA/	.	16ee\	.	16ee\	.	.	.	.	.	.	.	.	.	16ee\	.
.	.	16dd\JJ	.	16dd\JJ	.	.	.	.	.	.	.	.	.	16dd\JJ	.
8AA/	.	16cc#X\LL	.	16cc#X\LL	.	.	.	.	8r	.	8r	.	.	16cc#X\LL	.
.	.	16b\	.	16b\	.	.	.	.	.	.	.	.	.	16b\	.
8AA/J	.	16a\	.	16a\	.	.	.	.	8a\	.	8a\	.	.	16a\	.
.	.	16g\JJ	.	16g\JJ	.	.	.	.	.	.	.	.	.	16g\JJ	.
=20	=20	=20	=20	=20	=20	=20	=20	=20	=20	=20	=20	=20	=20	=20	=20
!	!	!	!	!LO:TX:t=P:problem=mixed beam	!	!	!	!	!	!	!	!	!	!	!
8D\L	.	8f#/L	.	16f#/LL	.	1ryy	1ryy	1ryy	4d/	.	4a\	.	1ryy	4f#/	.
.	.	.	.	16dd\J	.	.	.	.	.	.	.	.	.	.	.
8F#\	.	8a/	.	8ddT\J	.	.	.	.	.	.	.	.	.	.	.
8G\	.	8b/	.	(16.gg\LL	.	.	.	.	8r	.	8r	.	.	8r	.
.	.	.	.	32ee\K)	.	.	.	.	.	.	.	.	.	.	.
8A\J	.	8e/J	.	(16.dd\	.	.	.	.	8a\	.	8a\	.	.	8gg\	.
.	.	.	.	32cc#X\JJk)	.	.	.	.	.	.	.	.	.	.	.
.	.	.	.	8qqcc#/	.	.	.	.	.	.	.	.	.	8qqgg/	.
8D\L	.	8f#/L	.	4dd\	.	.	.	.	4d/	.	4a\	.	.	4ff#\	.
8F#\	.	8a/	.	.	.	.	.	.	.	.	.	.	.	.	.
8G\	.	8b/	.	(16.gg\LL	.	.	.	.	8r	.	8r	.	.	8r	.
.	.	.	.	32ee\K)	.	.	.	.	.	.	.	.	.	.	.
8A\J	.	8e/J	.	(16.dd\	.	.	.	.	8d/	.	8a\	.	.	8gg\	.
.	.	.	.	32cc#X\JJk)	.	.	.	.	.	.	.	.	.	.	.
=21	=21	=21	=21	=21	=21	=21	=21	=21	=21	=21	=21	=21	=21	=21	=21
!	!	!LO:TX:t=P:problem=mixed beam	!	!	!	!	!	!	!	!	!	!	!	!	!
.	.	.	.	.	.	.	.	.	.	.	.	.	.	8qqgg/	.
4D\	.	8f#/L	.	8dd\L	.	1ryy	1ryy	1ryy	4d/	.	4a\	.	1ryy	4ff#\	.
.	.	8ddd\J	.	8ddd\J	.	.	.	.	.	.	.	.	.	.	.
*	*	*Xtuplet	*	*Xtuplet	*	*	*	*	*	*	*	*	*	*	*
8r	.	24ddd\LL	.	24ddd\LL	.	.	.	.	8r	.	8r	.	.	8r	.
!	!	!LO:TX:t=P:problem=# above	!	!LO:SIC:v:s=16ccc#	!	!	!	!	!	!	!	!	!	!	!
.	.	24ccc#X\	.	24ccc\	.	.	.	.	.	.	.	.	.	.	.
.	.	24bb\JJ	.	24bb\JJ	.	.	.	.	.	.	.	.	.	.	.
8D\	.	24aa\LL	.	24aa\LL	.	.	.	.	8d/	.	8a\	.	.	8ff#\	.
.	.	24gg\	.	24gg\	.	.	.	.	.	.	.	.	.	.	.
.	.	24ff#\JJ	.	24ff#\JJ	.	.	.	.	.	.	.	.	.	.	.
8A\L	.	8ff#t\L	.	8ff#t\L	.	.	.	.	8a\L	.	8a\L	.	.	8ff#\L	.
16A\L	.	8ee\J	.	8ee\J	.	.	.	.	8a\J	.	8a\J	.	.	8ee\J	.
16G\JJ	.	.	.	.	.	.	.	.	.	.	.	.	.	.	.
8F#\L	.	4r	.	4r	.	.	.	.	4r	.	4r	.	.	4r	.
8E\J	.	.	.	.	.	.	.	.	.	.	.	.	.	.	.
!	!	!	!	!LO:LB:g=original	!	!	!	!	!	!	!	!	!	!LO:LB:g=original	!
=22	=22	=22	=22	=22	=22	=22	=22	=22	=22	=22	=22	=22	=22	=22	=22
8D\L	.	4ff#/ 4a/ 4d/	.	4ff#/ 4a/ 4d/	.	1ryy	1ryy	1ryy	4d/	.	4a\	.	1ryy	4ff#\	.
16D\L	.	.	.	.	.	.	.	.	.	.	.	.	.	.	.
16E\JJ	.	.	.	.	.	.	.	.	.	.	.	.	.	.	.
8F#\L	.	4r	.	4r	.	.	.	.	4r	.	4r	.	.	4r	.
16E\L	.	.	.	.	.	.	.	.	.	.	.	.	.	.	.
16D\JJ	.	.	.	.	.	.	.	.	.	.	.	.	.	.	.
!LO:LB:g=original	!	!	!	!	!	!	!	!	!	!	!	!	!	!	!
8A\L	.	4ee/ 4cc#X/ 4a/	.	4ee/ 4cc#X/ 4a/	.	.	.	.	4a\	.	4a\	.	.	4ee\	.
16A\L	.	.	.	.	.	.	.	.	.	.	.	.	.	.	.
16B\JJ	.	.	.	.	.	.	.	.	.	.	.	.	.	.	.
8c#X\L	.	4r	.	4r	.	.	.	.	4r	.	4r	.	.	4r	.
16B\L	.	.	.	.	.	.	.	.	.	.	.	.	.	.	.
16A\JJ	.	.	.	.	.	.	.	.	.	.	.	.	.	.	.
!	!	!	!	!	!	!	!	!	!	!	!LO:LB:g=original	!	!	!	!
=23	=23	=23	=23	=23	=23	=23	=23	=23	=23	=23	=23	=23	=23	=23	=23
8d\L	.	4ff#/ 4a/ 4d/	.	4ff#/ 4a/ 4d/	.	1ryy	1ryy	1ryy	4d/	.	4a\	.	1ryy	4ff#\	.
16D\L	.	.	.	.	.	.	.	.	.	.	.	.	.	.	.
16E\JJ	.	.	.	.	.	.	.	.	.	.	.	.	.	.	.
8F#\L	.	4r	.	4r	.	.	.	.	4r	.	4r	.	.	4r	.
16E\L	.	.	.	.	.	.	.	.	.	.	.	.	.	.	.
16D\JJ	.	.	.	.	.	.	.	.	.	.	.	.	.	.	.
!LO:TX:t=P:problem=mixed beam	!	!	!	!	!	!	!	!	!	!	!	!	!	!	!
8A\L	.	4ee/ 4cc#X/ 4a/	.	4ee/ 4cc#X/ 4a/	.	.	.	.	8a\L	.	8a\L	.	.	4ee\	.
16AA/L	.	.	.	.	.	.	.	.	16a\L	.	16a\L	.	.	.	.
16AA/JJ	.	.	.	.	.	.	.	.	16a\JJ	.	16a\JJ	.	.	.	.
4AA/	.	4r	.	4r	.	.	.	.	4a\	.	4a\	.	.	4r	.
=24	=24	=24	=24	=24	=24	=24	=24	=24	=24	=24	=24	=24	=24	=24	=24
!	!LO:DY:a	!	!LO:DY:a:t=pia.	!	!LO:DY:a	!	!	!	!	!	!	!	!	!	!LO:DY:a
8D\L	p	(16d/LL	p	(16f#/LL	p	1ryy	1ryy	1ryy	4d/	.	4a\	.	1ryy	(16f#/LL	p
.	.	16e/J)	.	16g/J)	.	.	.	.	.	.	.	.	.	16g/J)	.
!	!	!	!	!LO:TX:b:t=|:problem	!	!	!	!	!	!	!	!	!	!LO:TX:b:t=|:problem	!
16D\L	.	8f#/J	.	8a/J	.	.	.	.	.	.	.	.	.	8a/J	.
16E\JJ	.	.	.	.	.	.	.	.	.	.	.	.	.	.	.
8F#\L	.	4f#/	.	4a/	.	.	.	.	4r	.	4r	.	.	4a/	.
16E\L	.	.	.	.	.	.	.	.	.	.	.	.	.	.	.
16D\JJ	.	.	.	.	.	.	.	.	.	.	.	.	.	.	.
!	!	!LO:LB:g=original	!	!	!	!	!	!	!	!	!	!	!	!	!
!LO:TX:t=P:problem=mixed beam	!	!	!	!	!	!	!	!	!	!	!	!	!	!	!
8A\L	.	(16c#X/LL	.	(16e/LL	.	.	.	.	4a\	.	4a\	.	.	(16e/LL	.
.	.	16d/J)	.	16f#/J)	.	.	.	.	.	.	.	.	.	16f#/J)	.
!	!	!	!	!LO:TX:b:t=|:problem	!	!	!	!	!	!	!	!	!	!LO:TX:b:t=|:problem	!
16AA/L	.	8e/J	.	8g/J	.	.	.	.	.	.	.	.	.	8g/J	.
16AA/JJ	.	.	.	.	.	.	.	.	.	.	.	.	.	.	.
8C/L	.	4e/	.	4g/	.	.	.	.	4r	.	4r	.	.	4g/	.
16BB/L	.	.	.	.	.	.	.	.	.	.	.	.	.	.	.
16AA/JJ	.	.	.	.	.	.	.	.	.	.	.	.	.	.	.
!	!	!	!	!	!	!	!	!	!LO:LB:g=original	!	!	!	!	!	!
=25	=25	=25	=25	=25	=25	=25	=25	=25	=25	=25	=25	=25	=25	=25	=25
!	!	!	!	!LO:TX:t=P:problem=mixed beam	!	!	!	!	!	!	!	!	!	!LO:TX:t=P:problem=mixed beam	!
8D\L	.	8d/L	.	8f#/L	.	1ryy	1ryy	1ryy	4d/	.	4a\	.	1ryy	8f#/L	.
16D\L	.	8f#/J	.	8dd\J	.	.	.	.	.	.	.	.	.	8dd\J	.
16E\JJ	.	.	.	.	.	.	.	.	.	.	.	.	.	.	.
8F#\L	.	4f#/	.	4dd\	.	.	.	.	4r	.	4r	.	.	4dd\	.
16E\L	.	.	.	.	.	.	.	.	.	.	.	.	.	.	.
16D\JJ	.	.	.	.	.	.	.	.	.	.	.	.	.	.	.
!LO:TX:t=P:problem=mixed beam	!	!	!	!	!	!	!	!	!	!	!	!	!	!	!
.	.	8qqf#/	.	8qqdd/	.	.	.	.	.	.	.	.	.	8qqdd/	.
8A\L	.	4e/	.	4cc#X\	.	.	.	.	8a\L	.	8a\L	.	.	4cc#X\	.
8AA/J	.	.	.	.	.	.	.	.	8a\J	.	8a\J	.	.	.	.
4AA/	.	4r	.	4r	.	.	.	.	4a\	.	4a\	.	.	4r	.
=26	=26	=26	=26	=26	=26	=26	=26	=26	=26	=26	=26	=26	=26	=26	=26
!	!LO:DY:a	!	!	!	!	!	!	!	!	!	!	!	!	!	!LO:DY:a
8D\L	f	(16dd\LL	.	(16ff#\LL	.	1ryy	1ryy	1ryy	4d/	.	4d/	.	1ryy	(16ff#\LL	f
.	.	16cc#X\	.	16ee\	.	.	.	.	.	.	.	.	.	16ee\	.
8d\	.	16dd\	.	16ff#\	.	.	.	.	.	.	.	.	.	16ff#\	.
.	.	16ee\JJ)	.	16gg\JJ)	.	.	.	.	.	.	.	.	.	16gg\JJ)	.
8d\	.	4dd\	.	4ff#\	.	.	.	.	4r	.	4r	.	.	4ff#\	.
8d\J	.	.	.	.	.	.	.	.	.	.	.	.	.	.	.
8c#X\L	.	(16dd\LL	.	(16ff#\LL	.	.	.	.	2r	.	2r	.	.	(16ff#\LL	.
.	.	16cc#\	.	16ee\	.	.	.	.	.	.	.	.	.	16ee\	.
8c#\	.	16dd\	.	16ff#\	.	.	.	.	.	.	.	.	.	16ff#\	.
.	.	16ee\JJ)	.	16gg\JJ)	.	.	.	.	.	.	.	.	.	16gg\JJ)	.
8c#\	.	4dd\	.	4ff#\	.	.	.	.	.	.	.	.	.	4ff#\	.
8c#\J	.	.	.	.	.	.	.	.	.	.	.	.	.	.	.
=27	=27	=27	=27	=27	=27	=27	=27	=27	=27	=27	=27	=27	=27	=27	=27
8B\L	.	(16dd\LL	.	(16ff#\LL	.	1ryy	1ryy	1ryy	4d/	.	4d/	.	1ryy	(16ff#\LL	.
.	.	16cc#X\	.	16ee\	.	.	.	.	.	.	.	.	.	16ee\	.
8B\	.	16dd\	.	16ff#\	.	.	.	.	.	.	.	.	.	16ff#\	.
.	.	16ee\JJ)	.	16gg\JJ)	.	.	.	.	.	.	.	.	.	16gg\JJ)	.
8B\	.	4dd\	.	4ff#\	.	.	.	.	4r	.	4r	.	.	4ff#\	.
8B\J	.	.	.	.	.	.	.	.	.	.	.	.	.	.	.
8F#\L	.	(16dd\LL	.	(16ff#\LL	.	.	.	.	2r	.	2r	.	.	(16ff#\LL	.
.	.	16cc#\	.	16ee\	.	.	.	.	.	.	.	.	.	16ee\	.
8F#\	.	16dd\	.	16ff#\	.	.	.	.	.	.	.	.	.	16ff#\	.
.	.	16ee\JJ)	.	16gg\JJ)	.	.	.	.	.	.	.	.	.	16gg\JJ)	.
8F#\	.	4dd\	.	4ff#\	.	.	.	.	.	.	.	.	.	4ff#\	.
8F#\J	.	.	.	.	.	.	.	.	.	.	.	.	.	.	.
=28	=28	=28	=28	=28	=28	=28	=28	=28	=28	=28	=28	=28	=28	=28	=28
8G\L	.	2ee\	.	2gg\	.	1ryy	1ryy	1ryy	2g\	.	2b\	.	1ryy	2gg\	.
8G\	.	.	.	.	.	.	.	.	.	.	.	.	.	.	.
8E\	.	.	.	.	.	.	.	.	.	.	.	.	.	.	.
8E\J	.	.	.	.	.	.	.	.	.	.	.	.	.	.	.
!LO:TX:t=P:problem=mixed beam	!	!	!	!	!	!	!	!	!	!	!	!	!	!	!
.	.	8qqdd/	.	8qqff#/	.	.	.	.	.	.	.	.	.	8qqff#/	.
8A\L	.	2cc#X\	.	2ee\	.	.	.	.	2a\	.	2a\	.	.	2ee\	.
8A\	.	.	.	.	.	.	.	.	.	.	.	.	.	.	.
8AA/	.	.	.	.	.	.	.	.	.	.	.	.	.	.	.
8AA/J	.	.	.	.	.	.	.	.	.	.	.	.	.	.	.
=29	=29	=29	=29	=29	=29	=29	=29	=29	=29	=29	=29	=29	=29	=29	=29
4D\	.	8dd\L	.	16ff#\LL	.	1ryy	1ryy	1ryy	4d/	.	4a\	.	1ryy	8ff#\L	.
.	.	.	.	16ff#\	.	.	.	.	.	.	.	.	.	.	.
.	.	16aa\L	.	16aa\	.	.	.	.	.	.	.	.	.	8aa\	.
.	.	16aa\JJ	.	16aa\JJ	.	.	.	.	.	.	.	.	.	.	.
8r	.	16ff#\LL	.	16ff#\LL	.	.	.	.	4r	.	4r	.	.	8ff#\	.
.	.	16ff#\	.	16ff#\	.	.	.	.	.	.	.	.	.	.	.
8d\	.	16dd\	.	16dd\	.	.	.	.	.	.	.	.	.	8dd\J	.
.	.	16dd\JJ	.	16dd\JJ	.	.	.	.	.	.	.	.	.	.	.
!LO:LB:g=original	!	!	!	!LO:LB:g=original	!	!	!	!	!	!	!	!	!	!	!
8A\L	.	16a/LL	.	16a/LL	.	.	.	.	2r	.	2r	.	.	8a/L	.
.	.	16a/	.	16a/	.	.	.	.	.	.	.	.	.	.	.
8F#\J	.	16f#/	.	16f#/	.	.	.	.	.	.	.	.	.	8f#/J	.
.	.	16f#/JJ	.	16f#/JJ	.	.	.	.	.	.	.	.	.	.	.
4D\	.	4d/	.	4d/	.	.	.	.	.	.	.	.	.	4d/	.
!	!	!	!	!	!	!	!	!	!	!	!	!	!	!LO:LB:g=original	!
=30	=30	=30	=30	=30	=30	=30	=30	=30	=30	=30	=30	=30	=30	=30	=30
8D\L	.	(16d/LL	.	(16f#/LL	.	1ryy	1ryy	1ryy	0r	.	0r	.	1ryy	0r	.
.	.	16c#X/	.	16e/	.	.	.	.	.	.	.	.	.	.	.
8D\	.	16d/	.	16f#/	.	.	.	.	.	.	.	.	.	.	.
.	.	16e/JJ)	.	16g/JJ)	.	.	.	.	.	.	.	.	.	.	.
8D\	.	4d/	.	4f#/	.	.	.	.	.	.	.	.	.	.	.
8D\J	.	.	.	.	.	.	.	.	.	.	.	.	.	.	.
8C#X/L	.	(16d/LL	.	(16f#/LL	.	.	.	.	.	.	.	.	.	.	.
.	.	16c#/	.	16e/	.	.	.	.	.	.	.	.	.	.	.
8C#/	.	16d/	.	16f#/	.	.	.	.	.	.	.	.	.	.	.
.	.	16e/JJ)	.	16g/JJ)	.	.	.	.	.	.	.	.	.	.	.
8C#/	.	4d/	.	4f#/	.	.	.	.	.	.	.	.	.	.	.
8C#/J	.	.	.	.	.	.	.	.	.	.	.	.	.	.	.
=31	=31	=31	=31	=31	=31	=31	=31	=31	=31	=31	=31	=31	=31	=31	=31
8BB/L	.	(16d/LL	.	(16f#/LL	.	1ryy	1ryy	1ryy	.	.	.	.	1ryy	.	.
.	.	16c#X/	.	16e/	.	.	.	.	.	.	.	.	.	.	.
8BB/	.	16d/	.	16f#/	.	.	.	.	.	.	.	.	.	.	.
.	.	16e/JJ)	.	16g/JJ)	.	.	.	.	.	.	.	.	.	.	.
8BB/	.	4d/	.	4f#/	.	.	.	.	.	.	.	.	.	.	.
8BB/J	.	.	.	.	.	.	.	.	.	.	.	.	.	.	.
!	!	!LO:LB:g=original	!	!	!	!	!	!	!	!	!	!	!	!	!
8FF#/L	.	(16d/LL	.	(16f#/LL	.	.	.	.	.	.	.	.	.	.	.
.	.	16c#/	.	16e/	.	.	.	.	.	.	.	.	.	.	.
8FF#/	.	16d/	.	16f#/	.	.	.	.	.	.	.	.	.	.	.
.	.	16e/JJ)	.	16g/JJ)	.	.	.	.	.	.	.	.	.	.	.
8FF#/	.	4d/	.	4f#/	.	.	.	.	.	.	.	.	.	.	.
8FF#/J	.	.	.	.	.	.	.	.	.	.	.	.	.	.	.
=32	=32	=32	=32	=32	=32	=32	=32	=32	=32	=32	=32	=32	=32	=32	=32
8GG/L	.	2e/	.	2g/	.	1ryy	1ryy	1ryy	1r	.	1r	.	1ryy	1r	.
8GG/	.	.	.	.	.	.	.	.	.	.	.	.	.	.	.
8EE/	.	.	.	.	.	.	.	.	.	.	.	.	.	.	.
8EE/J	.	.	.	.	.	.	.	.	.	.	.	.	.	.	.
.	.	8qqd/	.	8qqf#/	.	.	.	.	.	.	.	.	.	.	.
8AA/L	.	2c#X/	.	2e/	.	.	.	.	.	.	.	.	.	.	.
8AA/	.	.	.	.	.	.	.	.	.	.	.	.	.	.	.
8AA/	.	.	.	.	.	.	.	.	.	.	.	.	.	.	.
8AA/J	.	.	.	.	.	.	.	.	.	.	.	.	.	.	.
=33	=33	=33	=33	=33	=33	=33	=33	=33	=33	=33	=33	=33	=33	=33	=33
!	!	!LO:TX:t=P:problem=mixed beam	!	!LO:TX:t=P:problem=mixed beam	!	!	!	!	!	!	!	!	!	!	!
8D\L	.	8d/L	.	8f#/L	.	1ryy	1ryy	1ryy	8r	.	8r	.	1ryy	8r	.
16d\L	.	16dd\L	.	16dd\L	.	.	.	.	16d/LL	.	16a\LL	.	.	8dd\L	.
16d\JJ	.	16dd\JJ	.	16dd\JJ	.	.	.	.	16d/JJ	.	16a\JJ	.	.	.	.
16A\LL	.	16a/LL	.	16a/LL	.	.	.	.	8d/L	.	8a\L	.	.	8a\	.
16A\	.	16a/	.	16a/	.	.	.	.	.	.	.	.	.	.	.
16F#\	.	16f#/	.	16f#/	.	.	.	.	8d/J	.	8a\J	.	.	8f#\J	.
16F#\JJ	.	16f#/JJ	.	16f#/JJ	.	.	.	.	.	.	.	.	.	.	.
8D\L	.	4d/	.	4d/	.	.	.	.	4d/	.	4a\	.	.	4d/	.
16E\L	.	.	.	.	.	.	.	.	.	.	.	.	.	.	.
16F#\JJ	.	.	.	.	.	.	.	.	.	.	.	.	.	.	.
16G\LL	.	4r	.	4r	.	.	.	.	4r	.	4r	.	.	4r	.
16A\	.	.	.	.	.	.	.	.	.	.	.	.	.	.	.
16B\	.	.	.	.	.	.	.	.	.	.	.	.	.	.	.
16c#X\JJ	.	.	.	.	.	.	.	.	.	.	.	.	.	.	.
=34	=34	=34	=34	=34	=34	=34	=34	=34	=34	=34	=34	=34	=34	=34	=34
!	!	!	!	!	!	!	!	!	!LO:TX:a:rj:t=Solo	!	!LO:TX:a:t=Solo	!	!	!	!
8d\L	.	4ff#/ 4a/ 4d/	.	4ff#/ 4a/ 4d/	.	1ryy	1ryy	1ryy	16d\LL	.	16a\LL	.	1ryy	4ff#\	.
.	.	.	.	.	.	.	.	.	16g\J	.	16b\J	.	.	.	.
8D\	.	.	.	.	.	.	.	.	8a\J	.	8cc\J	.	.	.	.
8D\	.	4r	.	4r	.	.	.	.	8a\L	.	8cc\L	.	.	4r	.
8D\J	.	.	.	.	.	.	.	.	8a\J	.	8cc\J	.	.	.	.
8D\L	.	2r	.	2r	.	.	.	.	4a\	.	4cc\	.	.	2r	.
8D\	.	.	.	.	.	.	.	.	.	.	.	.	.	.	.
8D\	.	.	.	.	.	.	.	.	4a\	.	4cc\	.	.	.	.
8D\J	.	.	.	.	.	.	.	.	.	.	.	.	.	.	.
=35	=35	=35	=35	=35	=35	=35	=35	=35	=35	=35	=35	=35	=35	=35	=35
8D\L	.	1r	.	1r	.	1ryy	1ryy	1ryy	16d\LL	.	16a\LL	.	1ryy	1r	.
.	.	.	.	.	.	.	.	.	16g\J	.	16b\J	.	.	.	.
8D\	.	.	.	.	.	.	.	.	8a\J	.	8cc\J	.	.	.	.
8D\	.	.	.	.	.	.	.	.	8a\L	.	8cc\L	.	.	.	.
8D\J	.	.	.	.	.	.	.	.	8a\J	.	8cc\J	.	.	.	.
.	.	.	.	.	.	.	.	.	.	.	8qqcc/	.	.	.	.
16G\LL	.	.	.	.	.	.	.	.	4a\	.	4b\	.	.	.	.
16A\	.	.	.	.	.	.	.	.	.	.	.	.	.	.	.
16B\	.	.	.	.	.	.	.	.	.	.	.	.	.	.	.
16cn\JJ	.	.	.	.	.	.	.	.	.	.	.	.	.	.	.
8d\L	.	.	.	.	.	.	.	.	4d/	.	4a\	.	.	.	.
8D\J	.	.	.	.	.	.	.	.	.	.	.	.	.	.	.
!	!	!	!	!	!	!	!	!	!	!	!LO:LB:g=original	!	!	!	!
=36	=36	=36	=36	=36	=36	=36	=36	=36	=36	=36	=36	=36	=36	=36	=36
4G\	.	16gg\LL	.	16bb\LL	.	1ryy	1ryy	1ryy	4g\	.	4b\	.	1ryy	8bb\L	.
.	.	16gg\	.	16bb\	.	.	.	.	.	.	.	.	.	.	.
.	.	16dd\	.	16gg\	.	.	.	.	.	.	.	.	.	8gg\	.
.	.	16dd\JJ	.	16gg\JJ	.	.	.	.	.	.	.	.	.	.	.
4r	.	16b/LL	.	16dd\LL	.	.	.	.	4r	.	4r	.	.	8dd\	.
.	.	16b/	.	16dd\	.	.	.	.	.	.	.	.	.	.	.
.	.	16g/	.	16b\	.	.	.	.	.	.	.	.	.	8b\J	.
.	.	16g/JJ	.	16b\JJ	.	.	.	.	.	.	.	.	.	.	.
!	!	!	!	!	!	!	!	!	!	!	!	!	!	!LO:TX:t=P:problem=mixed beam	!
8r	.	8d/L	.	8g\L	.	.	.	.	8g\L	.	8b\L	.	.	8g/L	.
8GG/L	.	8b/J	.	8dd\J	.	.	.	.	8b\J	.	8dd\J	.	.	8dd\J	.
8BB/	.	4bt/	.	4dd\	.	.	.	.	4b\	.	4ddT\	.	.	4ddT\	.
8GG/J	.	.	.	.	.	.	.	.	.	.	.	.	.	.	.
!LO:LB:g=original	!	!	!	!LO:LB:g=original	!	!	!	!	!	!	!	!	!	!	!
=37	=37	=37	=37	=37	=37	=37	=37	=37	=37	=37	=37	=37	=37	=37	=37
4D\	.	16ff#\LL	.	16aa\LL	.	1ryy	1ryy	1ryy	4a\	.	4cc\	.	1ryy	8aa\L	.
.	.	16ff#\	.	16aa\	.	.	.	.	.	.	.	.	.	.	.
.	.	16cc\	.	16ff#\	.	.	.	.	.	.	.	.	.	8ff#\	.
.	.	16cc\JJ	.	16ff#\JJ	.	.	.	.	.	.	.	.	.	.	.
4r	.	16a/LL	.	16cc\LL	.	.	.	.	4r	.	4r	.	.	8cc\	.
.	.	16a/	.	16cc\	.	.	.	.	.	.	.	.	.	.	.
.	.	16f#/	.	16a\	.	.	.	.	.	.	.	.	.	8a\J	.
.	.	16f#/JJ	.	16a\JJ	.	.	.	.	.	.	.	.	.	.	.
!	!	!	!	!LO:TX:t=P:problem=mixed beam	!	!	!	!	!	!	!	!	!	!LO:TX:t=P:problem=mixed beam	!
8r	.	8d/L	.	8f#/L	.	.	.	.	8d\L	.	8a\L	.	.	8f#/L	.
8D\L	.	8a/J	.	8cc\J	.	.	.	.	8a\J	.	8cc\J	.	.	8cc\J	.
8F#\	.	4aT/	.	4ccT\	.	.	.	.	4a\	.	4ccT\	.	.	4ccT\	.
8D\J	.	.	.	.	.	.	.	.	.	.	.	.	.	.	.
!	!	!	!	!	!	!	!	!	!LO:LB:g=original	!	!	!	!	!	!
=38	=38	=38	=38	=38	=38	=38	=38	=38	=38	=38	=38	=38	=38	=38	=38
!LO:TX:t=P:problem=mixed beam	!	!	!	!	!	!	!	!	!	!	!	!	!	!	!
8G\L	.	8b/L	.	8b/L	.	1ryy	1ryy	1ryy	8g\L	.	8b\L	.	1ryy	8b\L	.
16GG/L	.	8gg/ 8b/ 8d/	.	8gg/ 8b/ 8d/	.	.	.	.	8g\	.	8b\	.	.	8gg\	.
16AA/JJ	.	.	.	.	.	.	.	.	.	.	.	.	.	.	.
8BB/L	.	8gg/ 8b/ 8d/	.	8gg/ 8b/ 8d/	.	.	.	.	8g\	.	8b\	.	.	8gg\	.
16AA/L	.	8gg/J 8b/ 8d/	.	8gg/J 8b/ 8d/	.	.	.	.	8g\J	.	8b\J	.	.	8gg\J	.
16GG/JJ	.	.	.	.	.	.	.	.	.	.	.	.	.	.	.
8D/L	.	4ff#/ 4a/ 4d/	.	4ff#/ 4a/ 4d/	.	.	.	.	4d/	.	4a\	.	.	4ff#\	.
16D/L	.	.	.	.	.	.	.	.	.	.	.	.	.	.	.
16C/JJ	.	.	.	.	.	.	.	.	.	.	.	.	.	.	.
8BB-X/L	.	4r	.	4r	.	.	.	.	4r	.	4r	.	.	4r	.
8AA/J	.	.	.	.	.	.	.	.	.	.	.	.	.	.	.
=39	=39	=39	=39	=39	=39	=39	=39	=39	=39	=39	=39	=39	=39	=39	=39
!	!LO:DY:a	!	!LO:DY:a	!	!LO:DY:a	!	!	!	!	!	!	!	!	!	!
8GG/L	p	4.b-X\	p	4.dd\	p	1ryy	1ryy	1ryy	00r	.	00r	.	1ryy	00r	.
8GG/	.	.	.	.	.	.	.	.	.	.	.	.	.	.	.
8GG/	.	.	.	.	.	.	.	.	.	.	.	.	.	.	.
8GG/J	.	8cc\	.	8ee-X\	.	.	.	.	.	.	.	.	.	.	.
.	.	8qqcc/	.	8qqee-/	.	.	.	.	.	.	.	.	.	.	.
8GG/L	.	2b-\	.	2dd\	.	.	.	.	.	.	.	.	.	.	.
8GG/	.	.	.	.	.	.	.	.	.	.	.	.	.	.	.
8GG/	.	.	.	.	.	.	.	.	.	.	.	.	.	.	.
8GG/J	.	.	.	.	.	.	.	.	.	.	.	.	.	.	.
!	!	!LO:LB:g=original	!	!	!	!	!	!	!	!	!	!	!	!	!
=40	=40	=40	=40	=40	=40	=40	=40	=40	=40	=40	=40	=40	=40	=40	=40
8GG/L	.	8dd\L	.	8bb-X\L	.	1ryy	1ryy	1ryy	.	.	.	.	1ryy	.	.
8GG/	.	(8b-X\	.	(8dd\	.	.	.	.	.	.	.	.	.	.	.
8GG/	.	8a\	.	8cc\	.	.	.	.	.	.	.	.	.	.	.
8GG/J	.	8g\J)	.	8b-X\J)	.	.	.	.	.	.	.	.	.	.	.
.	.	8qqg/	.	8qqb-/	.	.	.	.	.	.	.	.	.	.	.
8D\L	.	2a/	.	2cc\	.	.	.	.	.	.	.	.	.	.	.
8D\	.	.	.	.	.	.	.	.	.	.	.	.	.	.	.
8D\	.	.	.	.	.	.	.	.	.	.	.	.	.	.	.
8D\J	.	.	.	.	.	.	.	.	.	.	.	.	.	.	.
=41	=41	=41	=41	=41	=41	=41	=41	=41	=41	=41	=41	=41	=41	=41	=41
8D\L	.	4.a/	.	4.cc\	.	1ryy	1ryy	1ryy	.	.	.	.	1ryy	.	.
8D\	.	.	.	.	.	.	.	.	.	.	.	.	.	.	.
8D\	.	.	.	.	.	.	.	.	.	.	.	.	.	.	.
8D\J	.	8b-X/	.	8dd\	.	.	.	.	.	.	.	.	.	.	.
.	.	8qqb-/	.	8qqdd/	.	.	.	.	.	.	.	.	.	.	.
8D\L	.	2a/	.	2cc\	.	.	.	.	.	.	.	.	.	.	.
8D\	.	.	.	.	.	.	.	.	.	.	.	.	.	.	.
8D\	.	.	.	.	.	.	.	.	.	.	.	.	.	.	.
8D\J	.	.	.	.	.	.	.	.	.	.	.	.	.	.	.
=42	=42	=42	=42	=42	=42	=42	=42	=42	=42	=42	=42	=42	=42	=42	=42
8D\L	.	8cc\L	.	8aa\L	.	1ryy	1ryy	1ryy	.	.	.	.	1ryy	.	.
8D\	.	(8a\	.	(8cc\	.	.	.	.	.	.	.	.	.	.	.
8D\	.	8g\	.	8b-X\	.	.	.	.	.	.	.	.	.	.	.
8D\J	.	8f#X\J)	.	8a\J)	.	.	.	.	.	.	.	.	.	.	.
!LO:TX:t=P:problem=mixed beam	!	!	!	!	!	!	!	!	!	!	!	!	!	!	!
.	.	8qqf#/	.	8qqa/	.	.	.	.	.	.	.	.	.	.	.
8G\L	.	2g/	.	2b-\	.	.	.	.	.	.	.	.	.	.	.
8GG/	.	.	.	.	.	.	.	.	.	.	.	.	.	.	.
8GG/	.	.	.	.	.	.	.	.	.	.	.	.	.	.	.
8GG/J	.	.	.	.	.	.	.	.	.	.	.	.	.	.	.
=43	=43	=43	=43	=43	=43	=43	=43	=43	=43	=43	=43	=43	=43	=43	=43
!LO:TX:b:t=|:problem	!LO:DY:a	!LO:TX:b:t=|:problem	!LO:DY:a	!LO:TX:b:t=|:problem	!LO:DY:a	!	!	!	!	!	!	!	!	!	!
8GG/L	f	8G/L	f	8G/L	f	1ryy	1ryy	1ryy	0r	.	0r	.	1ryy	0r	.
!LO:TX:b:t=|:problem	!	!LO:TX:b:t=|:problem	!	!LO:TX:b:t=|:problem	!	!	!	!	!	!	!	!	!	!	!
8BB-X/	.	8B-X/	.	8B-X/	.	.	.	.	.	.	.	.	.	.	.
!LO:TX:b:t=|:problem	!	!LO:TX:b:t=|:problem	!	!LO:TX:b:t=|:problem	!	!	!	!	!	!	!	!	!	!	!
8D/	.	8d/	.	8d/	.	.	.	.	.	.	.	.	.	.	.
!LO:TX:b:t=|:problem	!	!LO:TX:b:t=|:problem	!	!LO:TX:b:t=|:problem	!	!	!	!	!	!	!	!	!	!	!
8F#X/J	.	8f#X/J	.	8f#X/J	.	.	.	.	.	.	.	.	.	.	.
!LO:TX:a:t=|:problem	!	!LO:TX:b:t=|:problem	!	!LO:TX:b:t=|:problem	!	!	!	!	!	!	!	!	!	!	!
8G\L	.	8g/L	.	8g/L	.	.	.	.	.	.	.	.	.	.	.
!LO:TX:a:t=|:problem	!	!LO:TX:b:t=|:problem	!	!LO:TX:b:t=|:problem	!	!	!	!	!	!	!	!	!	!	!
8B-X\	.	8b-X/	.	8b-X/	.	.	.	.	.	.	.	.	.	.	.
!LO:TX:a:t=|:problem	!	!LO:TX:b:t=|:problem	!	!LO:TX:b:t=|:problem	!	!	!	!	!	!	!	!	!	!	!
8d\	.	8dd/	.	8dd/	.	.	.	.	.	.	.	.	.	.	.
!LO:TX:a:t=|:problem	!	!LO:TX:b:t=|:problem	!	!LO:TX:b:t=|:problem	!	!	!	!	!	!	!	!	!	!	!
8F#X\J	.	8f#X/J	.	8f#X/J	.	.	.	.	.	.	.	.	.	.	.
=44	=44	=44	=44	=44	=44	=44	=44	=44	=44	=44	=44	=44	=44	=44	=44
!	!	!	!	!LO:TX:b:t=|:problem	!	!	!	!	!	!	!	!	!	!	!
8G\L	.	8g/L	.	8g/L	.	1ryy	1ryy	1ryy	.	.	.	.	1ryy	.	.
!	!	!	!	!LO:TX:b:t=|:problem	!	!	!	!	!	!	!	!	!	!	!
8E-X\	.	8e-X/	.	8e-X/	.	.	.	.	.	.	.	.	.	.	.
!	!	!	!	!LO:TX:b:t=|:problem	!	!	!	!	!	!	!	!	!	!	!
8D\	.	8d/	.	8d/	.	.	.	.	.	.	.	.	.	.	.
!	!	!	!	!LO:TX:b:t=|:problem	!	!	!	!	!	!	!	!	!	!	!
8C#X\J	.	8c#X/J	.	8c#X/J	.	.	.	.	.	.	.	.	.	.	.
!LO:LB:g=original	!	!	!	!LO:LB:g=original	!	!	!	!	!	!	!	!	!	!	!
4D\	.	4d/	.	4d/	.	.	.	.	.	.	.	.	.	.	.
4r	.	4r	.	4r	.	.	.	.	.	.	.	.	.	.	.
=45	=45	=45	=45	=45	=45	=45	=45	=45	=45	=45	=45	=45	=45	=45	=45
8G\L	.	4gg/ 4bn/ 4d/ 4G/	.	4gg/ 4bn/ 4d/ 4G/	.	1ryy	1ryy	1ryy	4g\	.	4b\	.	1ryy	4gg\	.
16G\L	.	.	.	.	.	.	.	.	.	.	.	.	.	.	.
16A\JJ	.	.	.	.	.	.	.	.	.	.	.	.	.	.	.
8Bn\L	.	4r	.	4r	.	.	.	.	4r	.	4r	.	.	4r	.
16A\L	.	.	.	.	.	.	.	.	.	.	.	.	.	.	.
16G\JJ	.	.	.	.	.	.	.	.	.	.	.	.	.	.	.
8d\L	.	4ff#/ 4a/ 4d/	.	4ff#/ 4a/ 4d/	.	.	.	.	4d/	.	4a\	.	.	4ff#\	.
16D\L	.	.	.	.	.	.	.	.	.	.	.	.	.	.	.
16E\JJ	.	.	.	.	.	.	.	.	.	.	.	.	.	.	.
8F#\L	.	4r	.	4r	.	.	.	.	4r	.	4r	.	.	4r	.
16E\L	.	.	.	.	.	.	.	.	.	.	.	.	.	.	.
16D\JJ	.	.	.	.	.	.	.	.	.	.	.	.	.	.	.
=46	=46	=46	=46	=46	=46	=46	=46	=46	=46	=46	=46	=46	=46	=46	=46
8G\L	.	4gg/ 4b/ 4d/ 4G/	.	4gg/ 4b/ 4d/ 4G/	.	1ryy	1ryy	1ryy	4g\	.	4b\	.	1ryy	4gg\	.
16G\L	.	.	.	.	.	.	.	.	.	.	.	.	.	.	.
16A\JJ	.	.	.	.	.	.	.	.	.	.	.	.	.	.	.
8B\L	.	4r	.	4r	.	.	.	.	4r	.	4r	.	.	4r	.
16A\L	.	.	.	.	.	.	.	.	.	.	.	.	.	.	.
16G\JJ	.	.	.	.	.	.	.	.	.	.	.	.	.	.	.
8d\L	.	4ff#/ 4a/ 4d/	.	4ff#/ 4a/ 4d/	.	.	.	.	8d/L	.	8a\L	.	.	4ff#\	.
16D\L	.	.	.	.	.	.	.	.	16d/L	.	16a\L	.	.	.	.
16D\JJ	.	.	.	.	.	.	.	.	16d/JJ	.	16a\JJ	.	.	.	.
4D\	.	4r	.	4r	.	.	.	.	4d/	.	4a\	.	.	4r	.
=47	=47	=47	=47	=47	=47	=47	=47	=47	=47	=47	=47	=47	=47	=47	=47
!	!LO:DY:a	!	!LO:DY:a	!	!LO:DY:a	!	!	!	!	!	!	!	!	!	!LO:DY:a
8G\L	p	(16g/LL	p	(16b\LL	p	1ryy	1ryy	1ryy	16g\LL	.	16b\LL	.	1ryy	(16b\LL	p
.	.	16a/J)	.	16cc\J)	.	.	.	.	16a\J	.	16cc\J	.	.	16cc\J)	.
!	!	!	!	!LO:TX:a:t=|:problem	!	!	!	!	!	!	!	!	!	!LO:TX:a:t=|:problem	!
16G\L	.	8b/J	.	8dd\J	.	.	.	.	8b\J	.	8dd\J	.	.	8dd\J	.
16A\JJ	.	.	.	.	.	.	.	.	.	.	.	.	.	.	.
8B\L	.	4b/	.	4dd\	.	.	.	.	4b\	.	4dd\	.	.	4ddT\	.
16A\L	.	.	.	.	.	.	.	.	.	.	.	.	.	.	.
16G\JJ	.	.	.	.	.	.	.	.	.	.	.	.	.	.	.
8d\L	.	(16f#/LL	.	(16a\LL	.	.	.	.	16d\LL	.	16a\LL	.	.	(16a\LL	.
.	.	16g/J)	.	16b\J)	.	.	.	.	16g\J	.	16b\J	.	.	16b\J)	.
16D\L	.	8a/J	.	8cc\J	.	.	.	.	8a\J	.	8cc\J	.	.	8cc\J	.
16E\JJ	.	.	.	.	.	.	.	.	.	.	.	.	.	.	.
8F#\L	.	4a/	.	4cc\	.	.	.	.	4a\	.	4cc\	.	.	4ccT\	.
16E\L	.	.	.	.	.	.	.	.	.	.	.	.	.	.	.
16D\JJ	.	.	.	.	.	.	.	.	.	.	.	.	.	.	.
!	!	!LO:LB:g=original	!	!	!	!	!	!	!	!	!	!	!	!LO:LB:g=original	!
=48	=48	=48	=48	=48	=48	=48	=48	=48	=48	=48	=48	=48	=48	=48	=48
8G\L	.	8g/L	.	8b\L	.	1ryy	1ryy	1ryy	4g\	.	4b\	.	1ryy	8b\L	.
16G\L	.	8b/J	.	8gg\J	.	.	.	.	.	.	.	.	.	8gg\J	.
16A\JJ	.	.	.	.	.	.	.	.	.	.	.	.	.	.	.
8B\L	.	4bt/	.	4ggT\	.	.	.	.	8r	.	8r	.	.	4ggT\	.
16A\L	.	.	.	.	.	.	.	.	8g\	.	8b\	.	.	.	.
16G\JJ	.	.	.	.	.	.	.	.	.	.	.	.	.	.	.
.	.	8qqb/	.	8qqgg/	.	.	.	.	.	.	.	.	.	8qqgg/	.
8d\L	.	4a/	.	4ff#\	.	.	.	.	8d/L	.	8a\L	.	.	4ff#\	.
8D\J	.	.	.	.	.	.	.	.	8d/J	.	8a\J	.	.	.	.
4D\	.	4r	.	4r	.	.	.	.	4d/	.	4a\	.	.	4r	.
=49	=49	=49	=49	=49	=49	=49	=49	=49	=49	=49	=49	=49	=49	=49	=49
!	!LO:DY:a:rj	!	!LO:DY:a	!	!LO:DY:a	!	!	!	!	!	!	!	!	!	!
8G\L	f	16dd\LL	f	16ffn\LL	f	1ryy	1ryy	1ryy	8g\L	.	8g\L	.	1ryy	16ffn\LL	.
.	.	16dd\	.	16ff\	.	.	.	.	.	.	.	.	.	16ff\	.
8G\	.	16b\	.	16dd\	.	.	.	.	8g\	.	8g\	.	.	16dd\	.
.	.	16b\JJ	.	16dd\JJ	.	.	.	.	.	.	.	.	.	16dd\JJ	.
8G\	.	16fn/LL	.	16b/LL	.	.	.	.	8g\	.	8g\	.	.	16b\LL	.
.	.	16f/	.	16b/	.	.	.	.	.	.	.	.	.	16b\	.
8G\J	.	16d/	.	16fn/	.	.	.	.	8g\J	.	8g\J	.	.	16ff\	.
.	.	16d/JJ	.	16f/JJ	.	.	.	.	.	.	.	.	.	16ff\JJ	.
4C/	.	16c/LL	.	16e/LL	.	.	.	.	4g\	.	4g\	.	.	4ee\	.
.	.	16e/	.	16g/	.	.	.	.	.	.	.	.	.	.	.
.	.	16g/	.	16cc/	.	.	.	.	.	.	.	.	.	.	.
.	.	16cc/JJ	.	16ee/JJ	.	.	.	.	.	.	.	.	.	.	.
4r	.	4ee\	.	4gg\	.	.	.	.	4r	.	4r	.	.	4r	.
!	!	!	!	!	!	!	!	!	!	!	!LO:LB:g=original	!	!	!	!
=50	=50	=50	=50	=50	=50	=50	=50	=50	=50	=50	=50	=50	=50	=50	=50
!	!	!	!	!	!	!	!	!	!	!	!	!	!	!LO:SIC:v:s=16ffn	!
8G\L	.	16dd\LL	.	16ffn\LL	.	1ryy	1ryy	1ryy	8g\L	.	8g\L	.	1ryy	16ff#\LL	.
!	!	!	!	!	!	!	!	!	!	!	!	!	!	!LO:SIC:v:s=16ffn	!
.	.	16dd\	.	16ff\	.	.	.	.	.	.	.	.	.	16ff#\	.
8G\	.	16b\	.	16dd\	.	.	.	.	8g\	.	8g\	.	.	16dd\	.
.	.	16b\JJ	.	16dd\JJ	.	.	.	.	.	.	.	.	.	16dd\JJ	.
!	!	!LO:SIC:v:s=16fn	!	!	!	!	!	!	!	!	!	!	!	!	!
8G\	.	16f#/LL	.	16b/LL	.	.	.	.	8g\	.	8g\	.	.	16b\LL	.
!	!	!LO:SIC:v:s=16fn	!	!	!	!	!	!	!	!	!	!	!	!	!
.	.	16f#/	.	16b/	.	.	.	.	.	.	.	.	.	16b\	.
!	!	!	!	!	!	!	!	!	!	!	!	!	!	!LO:SIC:v:s=16ffn	!
8G\J	.	16d/	.	16fn/	.	.	.	.	8g\J	.	8g\J	.	.	16ff#\	.
!	!	!	!	!	!	!	!	!	!	!	!	!	!	!LO:SIC:v:s=16ffn	!
.	.	16d/JJ	.	16f/JJ	.	.	.	.	.	.	.	.	.	16ff#\JJ	.
!	!	!	!	!	!	!	!	!	!	!	!	!	!	!LO:SIC:v:s=16qffn	!
.	.	8qqd/	.	8qqf/	.	.	.	.	.	.	.	.	.	8qqff#/	.
8C/L	.	4c/	.	4e/	.	.	.	.	8g\L	.	8g\L	.	.	4ee\	.
8GG/J	.	.	.	.	.	.	.	.	16g\L	.	16g\L	.	.	.	.
.	.	.	.	.	.	.	.	.	16g\JJ	.	16g\JJ	.	.	.	.
4C/	.	4r	.	4r	.	.	.	.	4g\	.	4g\	.	.	4r	.
=51	=51	=51	=51	=51	=51	=51	=51	=51	=51	=51	=51	=51	=51	=51	=51
8A\L	.	16ee\LL	.	16gg\LL	.	1ryy	1ryy	1ryy	8a\L	.	8a\L	.	1ryy	16gg\LL	.
.	.	16ee\	.	16gg\	.	.	.	.	.	.	.	.	.	16gg\	.
8A\	.	16cc#X\	.	16ee\	.	.	.	.	8a\	.	8a\	.	.	16ee\	.
.	.	16cc#\JJ	.	16ee\JJ	.	.	.	.	.	.	.	.	.	16ee\JJ	.
8A\	.	16g/LL	.	16cc#X\LL	.	.	.	.	8a\	.	8a\	.	.	16cc#X\LL	.
.	.	16g/	.	16cc#\	.	.	.	.	.	.	.	.	.	16cc#\	.
8A\J	.	16e/	.	16g\	.	.	.	.	8a\J	.	8a\J	.	.	16gg\	.
.	.	16e/JJ	.	16g\JJ	.	.	.	.	.	.	.	.	.	16gg\JJ	.
!LO:LB:g=original	!	!	!	!LO:LB:g=original	!	!	!	!	!	!	!	!	!	!	!
4D\	.	16d/LL	.	16f#X/LL	.	.	.	.	4a\	.	4a\	.	.	4ff#\	.
.	.	16f#/	.	16a/	.	.	.	.	.	.	.	.	.	.	.
.	.	16a/	.	16dd/	.	.	.	.	.	.	.	.	.	.	.
.	.	16dd/JJ	.	16ff#/JJ	.	.	.	.	.	.	.	.	.	.	.
4r	.	4ff#\	.	4aa\	.	.	.	.	4r	.	4r	.	.	4r	.
=52	=52	=52	=52	=52	=52	=52	=52	=52	=52	=52	=52	=52	=52	=52	=52
8A\L	.	16ee\LL	.	16gg\LL	.	1ryy	1ryy	1ryy	8a\L	.	8a\L	.	1ryy	16gg\LL	.
.	.	16ee\	.	16gg\	.	.	.	.	.	.	.	.	.	16gg\	.
8A\	.	16cc#X\	.	16ee\	.	.	.	.	8a\	.	8a\	.	.	16ee\	.
.	.	16cc#\JJ	.	16ee\JJ	.	.	.	.	.	.	.	.	.	16ee\JJ	.
8A\	.	16g/LL	.	16cc#X\LL	.	.	.	.	8a\	.	8a\	.	.	16cc#X\LL	.
.	.	16g/	.	16cc#\	.	.	.	.	.	.	.	.	.	16cc#\	.
8A\J	.	16e/	.	16g\	.	.	.	.	8a\J	.	8a\J	.	.	16gg\	.
.	.	16e/JJ	.	16g\JJ	.	.	.	.	.	.	.	.	.	16gg\JJ	.
.	.	8qqe/	.	8qqg/	.	.	.	.	.	.	.	.	.	8qqgg/	.
8D/L	.	4d/	.	4f#/	.	.	.	.	4d/	.	4a\	.	.	4ff#\	.
16D/L	.	.	.	.	.	.	.	.	.	.	.	.	.	.	.
16Cn/JJ	.	.	.	.	.	.	.	.	.	.	.	.	.	.	.
8BB/L	.	4r	.	4r	.	.	.	.	4r	.	4r	.	.	4r	.
8AA/J	.	.	.	.	.	.	.	.	.	.	.	.	.	.	.
!	!	!	!	!	!	!	!	!	!LO:LB:g=original	!	!	!	!	!	!
=53	=53	=53	=53	=53	=53	=53	=53	=53	=53	=53	=53	=53	=53	=53	=53
!	!LO:DY:a:rj	!	!	!	!	!	!	!	!	!	!	!	!	!LO:TX:a:rj:t=Solo	!
8GG/L	p	00r	.	00r	.	1ryy	1ryy	1ryy	00r	.	00r	.	1ryy	8dd\L	.
8GG/	.	.	.	.	.	.	.	.	.	.	.	.	.	16b\L	.
.	.	.	.	.	.	.	.	.	.	.	.	.	.	16ccn\JJ	.
8GG/	.	.	.	.	.	.	.	.	.	.	.	.	.	8dd\L	.
8GG/J	.	.	.	.	.	.	.	.	.	.	.	.	.	8dd\J	.
8GG/L	.	.	.	.	.	.	.	.	.	.	.	.	.	4dd\	.
8GG/	.	.	.	.	.	.	.	.	.	.	.	.	.	.	.
8GG/	.	.	.	.	.	.	.	.	.	.	.	.	.	4bb\	.
8GG/J	.	.	.	.	.	.	.	.	.	.	.	.	.	.	.
!	!	!	!	!	!	!	!	!	!	!	!	!	!	!LO:LB:g=original	!
=54	=54	=54	=54	=54	=54	=54	=54	=54	=54	=54	=54	=54	=54	=54	=54
8GG/L	.	.	.	.	.	1ryy	1ryy	1ryy	.	.	.	.	1ryy	16bb\LL	.
.	.	.	.	.	.	.	.	.	.	.	.	.	.	16aa\	.
8GG/	.	.	.	.	.	.	.	.	.	.	.	.	.	16gg\	.
.	.	.	.	.	.	.	.	.	.	.	.	.	.	16ff#\JJ	.
8GG/	.	.	.	.	.	.	.	.	.	.	.	.	.	16ee\LL	.
.	.	.	.	.	.	.	.	.	.	.	.	.	.	16dd\	.
8GG/J	.	.	.	.	.	.	.	.	.	.	.	.	.	16cc\	.
.	.	.	.	.	.	.	.	.	.	.	.	.	.	16b\JJ	.
8D/L	.	.	.	.	.	.	.	.	.	.	.	.	.	8cc\L	.
8D/	.	.	.	.	.	.	.	.	.	.	.	.	.	16a\L	.
.	.	.	.	.	.	.	.	.	.	.	.	.	.	16b\JJ	.
8D/	.	.	.	.	.	.	.	.	.	.	.	.	.	8cc\L	.
8D/J	.	.	.	.	.	.	.	.	.	.	.	.	.	8cc\J	.
=55	=55	=55	=55	=55	=55	=55	=55	=55	=55	=55	=55	=55	=55	=55	=55
8D/L	.	.	.	.	.	1ryy	1ryy	1ryy	.	.	.	.	1ryy	4cc\	.
8D/	.	.	.	.	.	.	.	.	.	.	.	.	.	.	.
8D/	.	.	.	.	.	.	.	.	.	.	.	.	.	4aa\	.
8D/J	.	.	.	.	.	.	.	.	.	.	.	.	.	.	.
8D/L	.	.	.	.	.	.	.	.	.	.	.	.	.	16aa\LL	.
.	.	.	.	.	.	.	.	.	.	.	.	.	.	16gg\	.
8D/	.	.	.	.	.	.	.	.	.	.	.	.	.	16ff#\	.
.	.	.	.	.	.	.	.	.	.	.	.	.	.	16ee\JJ	.
8D/	.	.	.	.	.	.	.	.	.	.	.	.	.	16dd\LL	.
.	.	.	.	.	.	.	.	.	.	.	.	.	.	16cc\	.
8D/J	.	.	.	.	.	.	.	.	.	.	.	.	.	16b\	.
.	.	.	.	.	.	.	.	.	.	.	.	.	.	16a\JJ	.
=56	=56	=56	=56	=56	=56	=56	=56	=56	=56	=56	=56	=56	=56	=56	=56
!LO:TX:t=P:problem=mixed beam	!	!	!	!	!	!	!	!	!	!	!	!	!	!	!
8GG/L	.	.	.	.	.	1ryy	1ryy	1ryy	.	.	.	.	1ryy	8b\	.
8G\	.	.	.	.	.	.	.	.	.	.	.	.	.	4gg\	.
8E\	.	.	.	.	.	.	.	.	.	.	.	.	.	.	.
8C#X\J	.	.	.	.	.	.	.	.	.	.	.	.	.	8b\	.
8D\L	.	.	.	.	.	.	.	.	.	.	.	.	.	8b\L	.
8D\	.	.	.	.	.	.	.	.	.	.	.	.	.	8a\J	.
8F#\	.	.	.	.	.	.	.	.	.	.	.	.	.	4r	.
8D\J	.	.	.	.	.	.	.	.	.	.	.	.	.	.	.
=57	=57	=57	=57	=57	=57	=57	=57	=57	=57	=57	=57	=57	=57	=57	=57
!	!LO:DY:a:rj	!	!	!	!	!	!	!	!	!	!	!	!	!	!
8G\L	f	(16b\LL	.	(16gg\LL	.	1ryy	1ryy	1ryy	1g/	.	[1b\	.	1ryy	(16gg\LL	.
.	.	16a\	.	16ff#\	.	.	.	.	.	.	.	.	.	16ff#\	.
8G\	.	16b\	.	16gg\	.	.	.	.	.	.	.	.	.	16gg\	.
.	.	16ccn\JJ)	.	16aa\JJ)	.	.	.	.	.	.	.	.	.	16aa\JJ)	.
8G\	.	4b\	.	4gg\	.	.	.	.	.	.	.	.	.	4gg\	.
8G\J	.	.	.	.	.	.	.	.	.	.	.	.	.	.	.
8F#\L	.	(16b\LL	.	(16gg\LL	.	.	.	.	.	.	.	.	.	(16gg\LL	.
.	.	16a\	.	16ff#\	.	.	.	.	.	.	.	.	.	16ff#\	.
8F#\	.	16b\	.	16gg\	.	.	.	.	.	.	.	.	.	16gg\	.
.	.	16cc\JJ)	.	16aa\JJ)	.	.	.	.	.	.	.	.	.	16aa\JJ)	.
8F#\	.	4b\	.	4gg\	.	.	.	.	.	.	.	.	.	4gg\	.
8F#\J	.	.	.	.	.	.	.	.	.	.	.	.	.	.	.
!	!	!LO:LB:g=original	!	!	!	!	!	!	!	!	!	!	!	!	!
=58	=58	=58	=58	=58	=58	=58	=58	=58	=58	=58	=58	=58	=58	=58	=58
8E\L	.	(16b\LL	.	(16gg\LL	.	1ryy	1ryy	1ryy	1g/	.	1b\]	.	1ryy	(16gg\LL	.
.	.	16a\	.	16ff#\	.	.	.	.	.	.	.	.	.	16ff#\	.
8E\	.	16b\	.	16gg\	.	.	.	.	.	.	.	.	.	16gg\	.
.	.	16cc\JJ)	.	16aa\JJ)	.	.	.	.	.	.	.	.	.	16aa\JJ)	.
8E\	.	4b\	.	4gg\	.	.	.	.	.	.	.	.	.	4gg\	.
8E\J	.	.	.	.	.	.	.	.	.	.	.	.	.	.	.
8BB/L	.	(16b\LL	.	(16gg\LL	.	.	.	.	.	.	.	.	.	(16gg\LL	.
.	.	16a\	.	16ff#\	.	.	.	.	.	.	.	.	.	16ff#\	.
8BB/	.	16b\	.	16gg\	.	.	.	.	.	.	.	.	.	16gg\	.
.	.	16cc\JJ)	.	16aa\JJ)	.	.	.	.	.	.	.	.	.	16aa\JJ)	.
8BB/	.	4b\	.	4gg\	.	.	.	.	.	.	.	.	.	4gg\	.
8GG/J	.	.	.	.	.	.	.	.	.	.	.	.	.	.	.
=59	=59	=59	=59	=59	=59	=59	=59	=59	=59	=59	=59	=59	=59	=59	=59
8C/L	.	2cc\	.	2aa\	.	1ryy	1ryy	1ryy	2a\	.	2cc\	.	1ryy	2aa\	.
8C/	.	.	.	.	.	.	.	.	.	.	.	.	.	.	.
8AA/	.	.	.	.	.	.	.	.	.	.	.	.	.	.	.
8AA/J	.	.	.	.	.	.	.	.	.	.	.	.	.	.	.
.	.	8qqb/	.	8qqgg/	.	.	.	.	.	.	.	.	.	8qqgg/	.
8D\L	.	2a\	.	2ff#\	.	.	.	.	2d/	.	2a\	.	.	2ff#\	.
8D\	.	.	.	.	.	.	.	.	.	.	.	.	.	.	.
8D\	.	.	.	.	.	.	.	.	.	.	.	.	.	.	.
8D\J	.	.	.	.	.	.	.	.	.	.	.	.	.	.	.
!LO:LB:g=original	!	!	!	!	!	!	!	!	!	!	!	!	!	!	!
=60	=60	=60	=60	=60	=60	=60	=60	=60	=60	=60	=60	=60	=60	=60	=60
4GG/	.	8b\L	.	16gg\LL	.	1ryy	1ryy	1ryy	4g\	.	4b\	.	1ryy	4gg\	.
.	.	.	.	16gg\	.	.	.	.	.	.	.	.	.	.	.
.	.	16dd\L	.	16dd\	.	.	.	.	.	.	.	.	.	.	.
.	.	16dd\JJ	.	16dd\JJ	.	.	.	.	.	.	.	.	.	.	.
8r	.	16b/LL	.	16b/LL	.	.	.	.	4r	.	4r	.	.	4r	.
.	.	16b/	.	16b/	.	.	.	.	.	.	.	.	.	.	.
8G\	.	16g/	.	16g/	.	.	.	.	.	.	.	.	.	.	.
.	.	16g/JJ	.	16g/JJ	.	.	.	.	.	.	.	.	.	.	.
8D/L	.	16d/LL	.	16d/LL	.	.	.	.	2r	.	2r	.	.	2r	.
.	.	16d/	.	16d/	.	.	.	.	.	.	.	.	.	.	.
8BB/J	.	16B/	.	16B/	.	.	.	.	.	.	.	.	.	.	.
.	.	16B/JJ	.	16B/JJ	.	.	.	.	.	.	.	.	.	.	.
4GG/	.	4G/	.	4G/	.	.	.	.	.	.	.	.	.	.	.
!	!	!	!	!	!	!	!	!	!	!	!	!	!	!LO:LB:g=original	!
=61	=61	=61	=61	=61	=61	=61	=61	=61	=61	=61	=61	=61	=61	=61	=61
8G\L	.	(16g/LL	.	(16b\LL	.	1ryy	1ryy	1ryy	[>1g/	.	[1b\	.	1ryy	(16b\LL	.
.	.	16f#/	.	16a\	.	.	.	.	.	.	.	.	.	16a\	.
8G\	.	16g/	.	16b\	.	.	.	.	.	.	.	.	.	16b\	.
.	.	16a/JJ)	.	16cc\JJ)	.	.	.	.	.	.	.	.	.	16cc\JJ)	.
8G\	.	4g/	.	4b\	.	.	.	.	.	.	.	.	.	4b\	.
8G\J	.	.	.	.	.	.	.	.	.	.	.	.	.	.	.
!	!	!	!	!LO:LB:g=original	!	!	!	!	!	!	!	!	!	!	!
8F#\L	.	(16g/LL	.	(16b\LL	.	.	.	.	.	.	.	.	.	(16b\LL	.
.	.	16f#/	.	16a\	.	.	.	.	.	.	.	.	.	16a\	.
8F#\	.	16g/	.	16b\	.	.	.	.	.	.	.	.	.	16b\	.
.	.	16a/JJ)	.	16cc\JJ)	.	.	.	.	.	.	.	.	.	16cc\JJ)	.
8F#\	.	4g/	.	4b\	.	.	.	.	.	.	.	.	.	4b\	.
8F#\J	.	.	.	.	.	.	.	.	.	.	.	.	.	.	.
=62	=62	=62	=62	=62	=62	=62	=62	=62	=62	=62	=62	=62	=62	=62	=62
8E\L	.	(16g/LL	.	(16b\LL	.	1ryy	1ryy	1ryy	(1g/]	.	1b\]	.	1ryy	(16b\LL	.
.	.	16f#/	.	16a\	.	.	.	.	.	.	.	.	.	16a\	.
8E\	.	16g/	.	16b\	.	.	.	.	.	.	.	.	.	16b\	.
.	.	16a/JJ)	.	16cc\JJ)	.	.	.	.	.	.	.	.	.	16cc\JJ)	.
8E\	.	4g/	.	4b\	.	.	.	.	.	.	.	.	.	4b\	.
8E\J	.	.	.	.	.	.	.	.	.	.	.	.	.	.	.
8BB/L	.	(16g/LL	.	(16b\LL	.	.	.	.	.	.	.	.	.	(16b\LL	.
.	.	16f#/	.	16a\	.	.	.	.	.	.	.	.	.	16a\	.
8BB/	.	16g/	.	16b\	.	.	.	.	.	.	.	.	.	16b\	.
.	.	16a/JJ)	.	16cc\JJ)	.	.	.	.	.	.	.	.	.	16cc\JJ)	.
8BB/	.	4g/	.	4b\	.	.	.	.	.	.	.	.	.	4b\	.
8GG/J	.	.	.	.	.	.	.	.	.	.	.	.	.	.	.
=63	=63	=63	=63	=63	=63	=63	=63	=63	=63	=63	=63	=63	=63	=63	=63
8C/L	.	2a/	.	2cc\	.	1ryy	1ryy	1ryy	2a\)	.	2cc\	.	1ryy	2cc\	.
8C/	.	.	.	.	.	.	.	.	.	.	.	.	.	.	.
8AA/	.	.	.	.	.	.	.	.	.	.	.	.	.	.	.
8AA/J	.	.	.	.	.	.	.	.	.	.	.	.	.	.	.
.	.	8qqg/	.	8qqb/	.	.	.	.	.	.	8qqb/	.	.	8qqb/	.
8D/L	.	2f#/	.	2a\	.	.	.	.	2d/	.	2a\	.	.	2a/	.
8D/	.	.	.	.	.	.	.	.	.	.	.	.	.	.	.
8D/	.	.	.	.	.	.	.	.	.	.	.	.	.	.	.
8D/J	.	.	.	.	.	.	.	.	.	.	.	.	.	.	.
=64	=64	=64	=64	=64	=64	=64	=64	=64	=64	=64	=64	=64	=64	=64	=64
4GG/	.	16gg\LL	.	16bb\LL	.	1ryy	1ryy	1ryy	4g\	.	4b\	.	1ryy	8bb\L	.
.	.	16gg\	.	16bb\	.	.	.	.	.	.	.	.	.	.	.
.	.	16dd\	.	16gg\	.	.	.	.	.	.	.	.	.	8gg\	.
.	.	16dd\JJ	.	16gg\JJ	.	.	.	.	.	.	.	.	.	.	.
4r	.	16b/LL	.	16dd\LL	.	.	.	.	4r	.	4r	.	.	8dd\	.
.	.	16b/	.	16dd\	.	.	.	.	.	.	.	.	.	.	.
.	.	16g/	.	16b\	.	.	.	.	.	.	.	.	.	8b\J	.
.	.	16g/JJ	.	16b\JJ	.	.	.	.	.	.	.	.	.	.	.
!	!	!	!	!LO:TX:t=P:problem=mixed beam	!	!	!	!	!	!	!	!	!	!	!
8r	.	8d/L	.	8g/L	.	.	.	.	8g\L	.	8b\L	.	.	8g\L	.
8GG/L	.	8b/J	.	8dd\J	.	.	.	.	8b\J	.	8dd\J	.	.	8dd\J	.
8BB/	.	4bt/	.	4ddT\	.	.	.	.	4b\	.	4ddT\	.	.	4ddT\	.
8GG/J	.	.	.	.	.	.	.	.	.	.	.	.	.	.	.
=65	=65	=65	=65	=65	=65	=65	=65	=65	=65	=65	=65	=65	=65	=65	=65
4D\	.	16ff#\LL	.	16aa\LL	.	1ryy	1ryy	1ryy	4a\	.	4cc\	.	1ryy	8aa\L	.
.	.	16ff#\	.	16aa\	.	.	.	.	.	.	.	.	.	.	.
.	.	16cc\	.	16ff#\	.	.	.	.	.	.	.	.	.	8ff#\	.
.	.	16cc\JJ	.	16ff#\JJ	.	.	.	.	.	.	.	.	.	.	.
4r	.	16a/LL	.	16cc\LL	.	.	.	.	4r	.	4r	.	.	8cc\	.
.	.	16a/	.	16cc\	.	.	.	.	.	.	.	.	.	.	.
.	.	16f#/	.	16a\	.	.	.	.	.	.	.	.	.	8a\J	.
.	.	16f#/JJ	.	16a\JJ	.	.	.	.	.	.	.	.	.	.	.
!	!	!	!	!LO:TX:t=P:problem=mixed beam	!	!	!	!	!	!	!	!	!	!	!
8r	.	8d/L	.	8f#/L	.	.	.	.	8d\L	.	8a\L	.	.	8f#/L	.
8D\L	.	8a/J	.	8cc\J	.	.	.	.	8a\J	.	8cc\J	.	.	8cc/J	.
8F#\	.	4aT/	.	4ccT\	.	.	.	.	4a\	.	4ccT\	.	.	4ccT\	.
8D\J	.	.	.	.	.	.	.	.	.	.	.	.	.	.	.
!	!	!LO:LB:g=original	!	!	!	!	!	!	!	!	!	!	!	!	!
=66	=66	=66	=66	=66	=66	=66	=66	=66	=66	=66	=66	=66	=66	=66	=66
8G\L	.	8g/L	.	8b\L	.	1ryy	1ryy	1ryy	4g\	.	4b\	.	1ryy	8b\L	.
8B\	.	8b/	.	8gg\	.	.	.	.	.	.	.	.	.	8gg\	.
8d\	.	8f#/	.	8a\	.	.	.	.	8d/L	.	8a\L	.	.	8a\	.
8D\J	.	8a/J	.	8ff#\J	.	.	.	.	8d/J	.	8a\J	.	.	8ff#\J	.
4G\	.	4b/	.	4gg\	.	.	.	.	4g\	.	4b\	.	.	4gg\	.
4d\	.	4ff#/ 4a/ 4d/	.	4ff#/ 4a/ 4d/	.	.	.	.	4d/	.	4a\	.	.	4ff#\	.
!	!	!	!	!	!	!	!	!	!	!	!LO:LB:g=original	!	!	!	!
=67	=67	=67	=67	=67	=67	=67	=67	=67	=67	=67	=67	=67	=67	=67	=67
4G\	.	4gg/ 4b/ 4d/ 4G/	.	4gg/ 4b/ 4d/ 4G/	.	1ryy	1ryy	1ryy	4g\	.	4b\	.	1ryy	4gg\	.
4D\	.	4ff#/ 4a/ 4d/	.	4ff#/ 4a/ 4d/	.	.	.	.	4d/	.	4a\	.	.	4ff#\	.
4GG/	.	4gg/ 4b/ 4d/ 4G/	.	4gg/ 4b/ 4d/ 4G/	.	.	.	.	4g\	.	4b\	.	.	4gg\	.
4r	.	4r	.	4r	.	.	.	.	4r	.	4r	.	.	4r	.
==	==	==	==	==	==	==	==	==	==	==	==	==	==	==	==
*-	*-	*-	*-	*-	*-	*-	*-	*-	*-	*-	*-	*-	*-	*-	*-
!!!system-decoration: [(s1,s2)][(s3,s4)][(s5,s6,s7)][(s8,s9)][(s10)]
!!!RDF**dynam: p = pia:
!!!RDF**dynam: f = for.
!!!RDF**kern: > = above
!!!RDF**kern: < = below
!!!ENC: Katarzyna Serwa
!!!END: 2020-12-01
!!!ENC: Leszek Kubiak
!!!END: 2022-03-07
